cube_files/high_saturation.cube
TITLE "Created by Polarr" 
LUT_3D_SIZE 5 
0.00000000 0.00000000 0.00000000 
0.13333333 0.00000000 0.00000000 
0.41568627 0.00000000 0.00000000 
0.80392157 0.00000000 0.00000000 
1.00000000 0.00000000 0.00000000 
0.00000000 0.20392157 0.00000000 
0.13725490 0.13725490 0.00000000 
0.41960784 0.13333333 0.00000000 
0.80392157 0.00000000 0.00000000 
1.00000000 0.00000000 0.00000000 
0.00000000 0.59215686 0.00000000 
0.13333333 0.56470588 0.00000000 
0.42352941 0.42352941 0.00000000 
0.80392157 0.42745098 0.00000000 
1.00000000 0.36470588 0.00000000 
0.25098039 1.00000000 0.10980392 
0.41176471 1.00000000 0.01568627 
0.55686275 0.95294118 0.00000000 
0.77254902 0.77647059 0.00000000 
1.00000000 0.71372549 0.00000000 
1.00000000 1.00000000 0.78431373 
1.00000000 1.00000000 0.77647059 
1.00000000 1.00000000 0.66666667 
0.96862745 1.00000000 0.00000000 
1.00000000 1.00000000 0.00000000 
0.00000000 0.00000000 0.15686275 
0.14117647 0.00000000 0.14901961 
0.42745098 0.00000000 0.14901961 
0.82352941 0.00000000 0.07058824 
1.00000000 0.00000000 0.00000000 
0.00000000 0.14509804 0.14509804 
0.14509804 0.14509804 0.14509804 
0.44705882 0.07058824 0.09411765 
0.83529412 0.00000000 0.00000000 
1.00000000 0.00000000 0.00000000 
0.00000000 0.54509804 0.07843137 
0.00000000 0.54901961 0.09019608 
0.43137255 0.43137255 0.00000000 
0.82352941 0.40392157 0.00000000 
1.00000000 0.32941176 0.00000000 
0.00000000 1.00000000 0.32549020 
0.32941176 1.00000000 0.32941176 
0.58431373 0.96862745 0.11764706 
0.77647059 0.78039216 0.00000000 
1.00000000 0.70980392 0.00000000 
1.00000000 1.00000000 0.83529412 
1.00000000 1.00000000 0.83921569 
1.00000000 1.00000000 0.78431373 
0.99215686 1.00000000 0.33333333 
1.00000000 1.00000000 0.00000000 
0.00000000 0.00000000 0.47843137 
0.15294118 0.00000000 0.47058824 
0.43529412 0.00000000 0.46274510 
0.81960784 0.00000000 0.47450980 
1.00000000 0.00000000 0.41176471 
0.00000000 0.13333333 0.47450980 
0.03529412 0.09019608 0.47843137 
0.44313725 0.00000000 0.46274510 
0.83921569 0.00000000 0.44313725 
1.00000000 0.00000000 0.37647059 
0.00000000 0.44313725 0.44313725 
0.00000000 0.44313725 0.44313725 
0.43921569 0.43921569 0.43529412 
0.85098039 0.34509804 0.36078431 
1.00000000 0.27450980 0.32549020 
0.00000000 0.90980392 0.49019608 
0.00000000 0.90980392 0.50980392 
0.58431373 0.91764706 0.58431373 
0.78039216 0.78039216 0.27450980 
1.00000000 0.70980392 0.28235294 
0.87450980 1.00000000 0.86666667 
0.93725490 1.00000000 0.89019608 
1.00000000 1.00000000 0.91764706 
1.00000000 1.00000000 0.76078431 
1.00000000 1.00000000 0.27843137 
0.00000000 0.00000000 0.89803922 
0.00000000 0.00000000 0.89019608 
0.45490196 0.00000000 0.87843137 
0.81176471 0.00000000 0.85882353 
1.00000000 0.00000000 0.81568627 
0.00000000 0.05490196 0.89411765 
0.00000000 0.00000000 0.89411765 
0.40784314 0.00000000 0.87843137 
0.81176471 0.00000000 0.85490196 
1.00000000 0.00000000 0.79607843 
0.00000000 0.41568627 0.85882353 
0.00000000 0.39607843 0.85882353 
0.32941176 0.35294118 0.85490196 
0.81176471 0.31372549 0.83137255 
1.00000000 0.25882353 0.75686275 
0.00000000 0.80000000 0.80392157 
0.00000000 0.79607843 0.80000000 
0.17254902 0.79215686 0.79215686 
0.77647059 0.77647059 0.77647059 
1.00000000 0.72549020 0.72941176 
0.32156863 1.00000000 0.83529412 
0.48235294 1.00000000 0.84705882 
0.77254902 1.00000000 0.89411765 
1.00000000 1.00000000 0.96862745 
1.00000000 1.00000000 0.72156863 
0.00000000 0.00000000 1.00000000 
0.00000000 0.00000000 1.00000000 
0.41568627 0.00000000 1.00000000 
0.75686275 0.00000000 1.00000000 
1.00000000 0.00000000 1.00000000 
0.00000000 0.00000000 1.00000000 
0.00000000 0.00000000 1.00000000 
0.35686275 0.00000000 1.00000000 
0.73333333 0.00000000 1.00000000 
1.00000000 0.00000000 1.00000000 
0.00000000 0.36078431 1.00000000 
0.00000000 0.34901961 1.00000000 
0.29411765 0.32549020 1.00000000 
0.71764706 0.30980392 1.00000000 
1.00000000 0.27450980 1.00000000 
0.00000000 0.71764706 1.00000000 
0.00000000 0.71764706 1.00000000 
0.28235294 0.72156863 1.00000000 
0.72549020 0.72549020 1.00000000 
1.00000000 0.72549020 1.00000000 
0.00000000 1.00000000 1.00000000 
0.00000000 1.00000000 1.00000000 
0.34117647 1.00000000 1.00000000 
0.73725490 1.00000000 1.00000000 
1.00000000 1.00000000 1.00000000 
