cube_files/high_lumination.cube
TITLE "Created by Polarr" 
LUT_3D_SIZE 5 
0.00000000 0.00000000 0.00000000 
0.38039216 0.00000000 0.00000000 
0.93333333 0.00000000 0.00000000 
1.00000000 0.00000000 0.00000000 
1.00000000 0.00000000 0.00000000 
0.00000000 0.35686275 0.00000000 
0.32941176 0.33333333 0.00000000 
0.87843137 0.27450980 0.00000000 
1.00000000 0.00000000 0.00000000 
1.00000000 0.03137255 0.00000000 
0.00000000 0.81568627 0.00000000 
0.00000000 0.80000000 0.00000000 
0.74117647 0.75294118 0.00000000 
1.00000000 0.62745098 0.00000000 
1.00000000 0.54509804 0.00000000 
0.00000000 1.00000000 0.00000000 
0.00000000 1.00000000 0.00000000 
0.48627451 1.00000000 0.00000000 
0.96078431 0.97254902 0.00000000 
1.00000000 0.85098039 0.00000000 
0.00000000 1.00000000 0.00000000 
0.27450980 1.00000000 0.00000000 
0.54901961 1.00000000 0.00000000 
0.81568627 1.00000000 0.00000000 
1.00000000 1.00000000 0.00000000 
0.00000000 0.00000000 0.45098039 
0.39215686 0.00000000 0.40784314 
0.93725490 0.00000000 0.36078431 
1.00000000 0.00000000 0.24313725 
1.00000000 0.00000000 0.22745098 
0.00000000 0.35294118 0.35686275 
0.33333333 0.33333333 0.33333333 
0.88627451 0.23529412 0.26274510 
1.00000000 0.01568627 0.18431373 
1.00000000 0.21568627 0.18823529 
0.00000000 0.80784314 0.06274510 
0.00000000 0.78823529 0.00000000 
0.73725490 0.74509804 0.00000000 
1.00000000 0.63921569 0.00000000 
1.00000000 0.58431373 0.08235294 
0.00000000 1.00000000 0.00000000 
0.00000000 1.00000000 0.00000000 
0.54117647 1.00000000 0.00000000 
0.95686275 0.96078431 0.00000000 
1.00000000 0.86274510 0.01176471 
0.29411765 1.00000000 0.27450980 
0.40000000 1.00000000 0.27058824 
0.60392157 1.00000000 0.26274510 
0.83137255 1.00000000 0.25098039 
1.00000000 1.00000000 0.25098039 
0.00000000 0.00000000 1.00000000 
0.37647059 0.00000000 1.00000000 
0.89411765 0.00000000 0.93333333 
1.00000000 0.00000000 0.78431373 
1.00000000 0.00000000 0.65098039 
0.00000000 0.33333333 0.94901961 
0.28235294 0.30588235 0.92549020 
0.84313725 0.20000000 0.86274510 
1.00000000 0.03529412 0.73725490 
1.00000000 0.32156863 0.65490196 
0.00000000 0.77647059 0.78039216 
0.00000000 0.76078431 0.76078431 
0.72156863 0.72156863 0.72156863 
1.00000000 0.68235294 0.68627451 
1.00000000 0.67843137 0.66666667 
0.00000000 1.00000000 0.63529412 
0.25882353 0.99215686 0.64313725 
0.63921569 0.96862745 0.63921569 
0.94117647 0.94117647 0.61960784 
1.00000000 0.88235294 0.62745098 
0.52549020 1.00000000 0.65882353 
0.57254902 1.00000000 0.65882353 
0.69803922 1.00000000 0.65098039 
0.86666667 1.00000000 0.64313725 
1.00000000 1.00000000 0.63529412 
0.00000000 0.00000000 1.00000000 
0.35686275 0.00000000 1.00000000 
0.77647059 0.00000000 1.00000000 
1.00000000 0.00000000 1.00000000 
1.00000000 0.00000000 1.00000000 
0.00000000 0.30196078 1.00000000 
0.31764706 0.29803922 1.00000000 
0.74117647 0.24313725 1.00000000 
1.00000000 0.13333333 1.00000000 
1.00000000 0.30196078 1.00000000 
0.00000000 0.69019608 1.00000000 
0.25098039 0.69411765 1.00000000 
0.70588235 0.70588235 1.00000000 
1.00000000 0.67843137 1.00000000 
1.00000000 0.68627451 0.93725490 
0.00000000 0.98039216 0.98039216 
0.29019608 0.96862745 0.96862745 
0.66666667 0.94509804 0.94509804 
0.92156863 0.92156863 0.92156863 
1.00000000 0.90196078 0.90196078 
0.57254902 1.00000000 0.87450980 
0.63137255 1.00000000 0.87450980 
0.76862745 1.00000000 0.88235294 
0.89803922 1.00000000 0.88627451 
1.00000000 1.00000000 0.87843137 
0.11764706 0.00000000 1.00000000 
0.36078431 0.00000000 1.00000000 
0.67843137 0.00000000 1.00000000 
1.00000000 0.00000000 1.00000000 
1.00000000 0.00000000 1.00000000 
0.19215686 0.31764706 1.00000000 
0.38823529 0.30588235 1.00000000 
0.68235294 0.29019608 1.00000000 
0.98039216 0.28235294 1.00000000 
1.00000000 0.32941176 1.00000000 
0.23137255 0.64705882 1.00000000 
0.44705882 0.66666667 1.00000000 
0.72156863 0.69803922 1.00000000 
0.93725490 0.68627451 1.00000000 
1.00000000 0.68235294 1.00000000 
0.38823529 0.89411765 1.00000000 
0.50980392 0.89803922 1.00000000 
0.72549020 0.90196078 1.00000000 
0.91372549 0.90980392 1.00000000 
1.00000000 0.89803922 1.00000000 
0.58823529 1.00000000 1.00000000 
0.64313725 1.00000000 1.00000000 
0.76862745 1.00000000 1.00000000 
0.90196078 1.00000000 1.00000000 
1.00000000 1.00000000 1.00000000 
