cube_files/lowcolor_filter.cube
TITLE "Created by Polarr" 
LUT_3D_SIZE 9 
0.00000000 0.00000000 0.00000000 
0.07843137 0.00000000 0.00000000 
0.22745098 0.00000000 0.00000000 
0.42352941 0.00000000 0.00000000 
0.65098039 0.00000000 0.00000000 
0.87058824 0.00000000 0.00000000 
1.00000000 0.00000000 0.00000000 
1.00000000 0.00000000 0.00000000 
1.00000000 0.00000000 0.00000000 
0.00000000 0.08627451 0.00000000 
0.09019608 0.09019608 0.00000000 
0.23921569 0.10588235 0.00000000 
0.43137255 0.11372549 0.00000000 
0.65882353 0.09803922 0.00000000 
0.87450980 0.01568627 0.00000000 
1.00000000 0.00000000 0.00000000 
1.00000000 0.00000000 0.00000000 
1.00000000 0.00000000 0.00000000 
0.00000000 0.25490196 0.00000000 
0.09803922 0.25490196 0.00000000 
0.25882353 0.25882353 0.00000000 
0.45098039 0.28235294 0.00000000 
0.67450980 0.30196078 0.00000000 
0.87843137 0.29411765 0.00000000 
1.00000000 0.26666667 0.00000000 
1.00000000 0.23529412 0.00000000 
1.00000000 0.20784314 0.00000000 
0.00000000 0.47058824 0.00000000 
0.00000000 0.47058824 0.00000000 
0.28235294 0.47450980 0.00000000 
0.47843137 0.47843137 0.00000000 
0.68627451 0.49803922 0.00000000 
0.87843137 0.49019608 0.00000000 
1.00000000 0.46274510 0.00000000 
1.00000000 0.43137255 0.00000000 
1.00000000 0.39607843 0.00000000 
0.00000000 0.69019608 0.00000000 
0.00000000 0.69019608 0.00000000 
0.25098039 0.69019608 0.00000000 
0.48627451 0.69019608 0.00000000 
0.68627451 0.69019608 0.00000000 
0.87058824 0.67058824 0.00000000 
1.00000000 0.63921569 0.00000000 
1.00000000 0.59607843 0.00000000 
1.00000000 0.55294118 0.00000000 
0.00000000 0.85882353 0.00000000 
0.00000000 0.85490196 0.00000000 
0.16470588 0.85490196 0.00000000 
0.44313725 0.85490196 0.00000000 
0.64705882 0.85098039 0.00000000 
0.84313725 0.84705882 0.00000000 
0.98823529 0.80784314 0.00000000 
1.00000000 0.75294118 0.00000000 
1.00000000 0.69803922 0.00000000 
0.00000000 0.96862745 0.00000000 
0.00000000 0.96862745 0.00000000 
0.10196078 0.96470588 0.00000000 
0.40000000 0.96470588 0.00000000 
0.59215686 0.96078431 0.00000000 
0.77647059 0.95686275 0.00000000 
0.94901961 0.94901961 0.00000000 
1.00000000 0.89803922 0.00000000 
1.00000000 0.82352941 0.00000000 
0.00000000 1.00000000 0.00000000 
0.00000000 1.00000000 0.00000000 
0.15686275 1.00000000 0.00000000 
0.38039216 1.00000000 0.00000000 
0.54901961 1.00000000 0.00000000 
0.70980392 1.00000000 0.00000000 
0.86274510 1.00000000 0.00000000 
1.00000000 1.00000000 0.00000000 
1.00000000 0.93333333 0.00000000 
0.09019608 1.00000000 0.06666667 
0.17254902 1.00000000 0.07058824 
0.28235294 1.00000000 0.07450980 
0.40784314 1.00000000 0.08627451 
0.52941176 1.00000000 0.09803922 
0.65098039 1.00000000 0.11372549 
0.77254902 1.00000000 0.13333333 
0.89411765 1.00000000 0.15294118 
1.00000000 1.00000000 0.17647059 
0.00000000 0.00000000 0.08235294 
0.08627451 0.00000000 0.08627451 
0.23137255 0.00000000 0.10196078 
0.42745098 0.00000000 0.10588235 
0.65490196 0.00000000 0.08235294 
0.87058824 0.00000000 0.04313725 
1.00000000 0.00000000 0.00000000 
1.00000000 0.00000000 0.00000000 
1.00000000 0.00000000 0.00000000 
0.00000000 0.09019608 0.09019608 
0.09411765 0.09411765 0.09411765 
0.24705882 0.09411765 0.09411765 
0.44313725 0.07843137 0.09019608 
0.66666667 0.00000000 0.07058824 
0.87450980 0.00000000 0.02745098 
1.00000000 0.00000000 0.00000000 
1.00000000 0.00000000 0.00000000 
1.00000000 0.00000000 0.00000000 
0.00000000 0.25882353 0.09019608 
0.07843137 0.25882353 0.08627451 
0.26274510 0.26274510 0.08627451 
0.45882353 0.27450980 0.07058824 
0.67843137 0.28235294 0.02745098 
0.87843137 0.26666667 0.00000000 
1.00000000 0.24313725 0.00000000 
1.00000000 0.21568627 0.00000000 
1.00000000 0.20000000 0.00000000 
0.00000000 0.47450980 0.01176471 
0.00000000 0.47450980 0.00784314 
0.27058824 0.47450980 0.00000000 
0.47843137 0.47843137 0.00000000 
0.69019608 0.49019608 0.00000000 
0.87843137 0.47843137 0.00000000 
1.00000000 0.45098039 0.00000000 
1.00000000 0.42352941 0.00000000 
1.00000000 0.39215686 0.00000000 
0.00000000 0.69019608 0.00000000 
0.00000000 0.69019608 0.00000000 
0.22352941 0.69019608 0.00000000 
0.47843137 0.69019608 0.00000000 
0.68627451 0.68627451 0.00000000 
0.86666667 0.66666667 0.00000000 
1.00000000 0.63137255 0.00000000 
1.00000000 0.59215686 0.00000000 
1.00000000 0.55294118 0.00000000 
0.00000000 0.85490196 0.00000000 
0.00000000 0.85490196 0.00000000 
0.14117647 0.85490196 0.00000000 
0.43921569 0.85098039 0.00000000 
0.64313725 0.84705882 0.00000000 
0.84313725 0.84313725 0.00000000 
0.98431373 0.80392157 0.00000000 
1.00000000 0.75294118 0.00000000 
1.00000000 0.69803922 0.00000000 
0.00000000 0.96470588 0.00000000 
0.00000000 0.96470588 0.00000000 
0.10588235 0.96470588 0.00000000 
0.40000000 0.96078431 0.00000000 
0.59215686 0.95686275 0.00000000 
0.77254902 0.95294118 0.00000000 
0.94509804 0.94901961 0.00000000 
1.00000000 0.89411765 0.00000000 
1.00000000 0.82352941 0.02745098 
0.00000000 1.00000000 0.00000000 
0.00000000 1.00000000 0.00000000 
0.18039216 1.00000000 0.00000000 
0.38823529 1.00000000 0.00000000 
0.55294118 1.00000000 0.00000000 
0.70980392 1.00000000 0.00000000 
0.86274510 1.00000000 0.00000000 
1.00000000 1.00000000 0.00000000 
1.00000000 0.93333333 0.14901961 
0.15294118 1.00000000 0.18823529 
0.20784314 1.00000000 0.18823529 
0.30588235 1.00000000 0.18823529 
0.42352941 1.00000000 0.19607843 
0.53725490 1.00000000 0.20000000 
0.65882353 1.00000000 0.21176471 
0.77647059 1.00000000 0.21960784 
0.89411765 1.00000000 0.23529412 
1.00000000 1.00000000 0.25098039 
0.00000000 0.00000000 0.24705882 
0.10588235 0.00000000 0.24705882 
0.24705882 0.00000000 0.25098039 
0.43137255 0.00000000 0.27450980 
0.65882353 0.00000000 0.29019608 
0.87450980 0.00000000 0.27843137 
1.00000000 0.00000000 0.25490196 
1.00000000 0.00000000 0.23921569 
1.00000000 0.00000000 0.23137255 
0.00000000 0.10196078 0.25490196 
0.09411765 0.09411765 0.25882353 
0.25490196 0.09019608 0.25882353 
0.44705882 0.06274510 0.27058824 
0.66666667 0.00000000 0.27843137 
0.87450980 0.00000000 0.26666667 
1.00000000 0.00000000 0.24705882 
1.00000000 0.00000000 0.23529412 
1.00000000 0.00000000 0.23137255 
0.00000000 0.25882353 0.26274510 
0.05882353 0.26274510 0.26274510 
0.26274510 0.26274510 0.26274510 
0.46666667 0.26274510 0.26274510 
0.68235294 0.24705882 0.25490196 
0.87450980 0.22745098 0.24705882 
1.00000000 0.21176471 0.23921569 
1.00000000 0.20000000 0.23529412 
1.00000000 0.20392157 0.23137255 
0.00000000 0.47450980 0.26274510 
0.00000000 0.47450980 0.25882353 
0.24705882 0.47450980 0.25490196 
0.47450980 0.47843137 0.25098039 
0.69019608 0.47843137 0.24313725 
0.87450980 0.46274510 0.23529412 
1.00000000 0.43921569 0.23137255 
1.00000000 0.41568627 0.23137255 
1.00000000 0.40000000 0.23529412 
0.00000000 0.68627451 0.22745098 
0.00000000 0.68627451 0.22745098 
0.18039216 0.68627451 0.22745098 
0.46274510 0.68627451 0.22352941 
0.68235294 0.68235294 0.21960784 
0.86274510 0.65882353 0.21960784 
1.00000000 0.62352941 0.21960784 
1.00000000 0.59215686 0.22745098 
1.00000000 0.55686275 0.23529412 
0.00000000 0.84705882 0.20392157 
0.00000000 0.84705882 0.20392157 
0.11764706 0.84705882 0.20392157 
0.43137255 0.84313725 0.20392157 
0.63921569 0.84313725 0.20000000 
0.83529412 0.83921569 0.20000000 
0.98039216 0.79607843 0.21176471 
1.00000000 0.74901961 0.22745098 
1.00000000 0.70196078 0.24705882 
0.00000000 0.96078431 0.21568627 
0.00000000 0.95686275 0.21568627 
0.14901961 0.95686275 0.21568627 
0.40784314 0.95686275 0.21568627 
0.59607843 0.95294118 0.21568627 
0.77254902 0.94901961 0.21960784 
0.94117647 0.94117647 0.22352941 
1.00000000 0.89411765 0.24705882 
1.00000000 0.83137255 0.27450980 
0.00000000 1.00000000 0.25882353 
0.00000000 1.00000000 0.25882353 
0.24313725 1.00000000 0.26274510 
0.41568627 1.00000000 0.26274510 
0.56862745 1.00000000 0.26666667 
0.71764706 1.00000000 0.27058824 
0.86274510 1.00000000 0.27843137 
1.00000000 1.00000000 0.28627451 
1.00000000 0.93333333 0.31764706 
0.25098039 1.00000000 0.33725490 
0.29019608 1.00000000 0.33725490 
0.36078431 1.00000000 0.33725490 
0.45882353 1.00000000 0.34117647 
0.56470588 1.00000000 0.34509804 
0.67843137 1.00000000 0.34901961 
0.78823529 1.00000000 0.35686275 
0.89803922 1.00000000 0.36470588 
1.00000000 1.00000000 0.37647059 
0.00000000 0.00000000 0.45882353 
0.11764706 0.00000000 0.46274510 
0.28627451 0.00000000 0.46274510 
0.45882353 0.00000000 0.46666667 
0.66274510 0.00000000 0.48627451 
0.87450980 0.00000000 0.48627451 
1.00000000 0.00000000 0.45882353 
1.00000000 0.00000000 0.43137255 
1.00000000 0.00000000 0.40784314 
0.00000000 0.10588235 0.46666667 
0.07058824 0.09019608 0.46666667 
0.27450980 0.07843137 0.47058824 
0.46274510 0.04313725 0.47058824 
0.67058824 0.00000000 0.48627451 
0.87450980 0.00000000 0.47843137 
1.00000000 0.00000000 0.45490196 
1.00000000 0.00000000 0.42745098 
1.00000000 0.00000000 0.41176471 
0.00000000 0.27843137 0.47450980 
0.00000000 0.27450980 0.47450980 
0.25882353 0.26274510 0.47450980 
0.47058824 0.25882353 0.47450980 
0.68235294 0.23921569 0.47843137 
0.87450980 0.21568627 0.46274510 
1.00000000 0.20392157 0.44313725 
1.00000000 0.21176471 0.43137255 
1.00000000 0.24705882 0.42352941 
0.00000000 0.47450980 0.47843137 
0.00000000 0.47450980 0.47450980 
0.23137255 0.47450980 0.47450980 
0.47058824 0.47058824 0.47058824 
0.68235294 0.46274510 0.46274510 
0.86274510 0.45490196 0.45490196 
1.00000000 0.44313725 0.44705882 
1.00000000 0.43529412 0.43921569 
1.00000000 0.43137255 0.43137255 
0.00000000 0.68235294 0.46666667 
0.00000000 0.68235294 0.46666667 
0.15294118 0.67843137 0.46274510 
0.45490196 0.67450980 0.45882353 
0.67450980 0.67450980 0.45882353 
0.85098039 0.65098039 0.45490196 
0.98823529 0.62745098 0.44705882 
1.00000000 0.60000000 0.44313725 
1.00000000 0.58039216 0.43921569 
0.00000000 0.83921569 0.44705882 
0.00000000 0.83921569 0.44705882 
0.18431373 0.83529412 0.45098039 
0.44313725 0.83529412 0.45098039 
0.63921569 0.83137255 0.45098039 
0.82745098 0.82745098 0.45098039 
0.96470588 0.79215686 0.45098039 
1.00000000 0.75686275 0.44705882 
1.00000000 0.72156863 0.44705882 
0.00000000 0.94901961 0.45490196 
0.00000000 0.94901961 0.45490196 
0.25882353 0.94509804 0.45490196 
0.44705882 0.94509804 0.45490196 
0.61568627 0.94117647 0.45490196 
0.77647059 0.93725490 0.45490196 
0.93333333 0.93333333 0.45882353 
1.00000000 0.89019608 0.45882353 
1.00000000 0.83921569 0.46666667 
0.17647059 1.00000000 0.46666667 
0.23921569 1.00000000 0.46666667 
0.34901961 1.00000000 0.46666667 
0.47450980 1.00000000 0.47058824 
0.60392157 1.00000000 0.47058824 
0.73725490 1.00000000 0.47450980 
0.87058824 1.00000000 0.47450980 
1.00000000 0.99607843 0.47843137 
1.00000000 0.93725490 0.48627451 
0.36862745 1.00000000 0.49803922 
0.39215686 1.00000000 0.49803922 
0.44313725 1.00000000 0.49803922 
0.52156863 1.00000000 0.49803922 
0.60784314 1.00000000 0.50196078 
0.70588235 1.00000000 0.50196078 
0.80784314 1.00000000 0.50588235 
0.90980392 1.00000000 0.51372549 
1.00000000 1.00000000 0.51764706 
0.00000000 0.00000000 0.68627451 
0.09803922 0.00000000 0.68627451 
0.30196078 0.00000000 0.68627451 
0.48627451 0.00000000 0.69019608 
0.67450980 0.00000000 0.69019608 
0.87450980 0.00000000 0.68627451 
1.00000000 0.00000000 0.65098039 
1.00000000 0.00000000 0.60784314 
1.00000000 0.00000000 0.56862745 
0.00000000 0.08627451 0.68627451 
0.00000000 0.07843137 0.68627451 
0.27843137 0.05882353 0.69019608 
0.47843137 0.00000000 0.69019608 
0.67450980 0.00000000 0.68627451 
0.87450980 0.00000000 0.68235294 
1.00000000 0.00000000 0.64705882 
1.00000000 0.00000000 0.60392157 
1.00000000 0.00000000 0.56862745 
0.00000000 0.27843137 0.69019608 
0.00000000 0.27058824 0.68627451 
0.24705882 0.25490196 0.68627451 
0.47058824 0.25098039 0.68627451 
0.67450980 0.23529412 0.68627451 
0.87058824 0.21568627 0.67058824 
1.00000000 0.20392157 0.63529412 
1.00000000 0.21568627 0.60392157 
1.00000000 0.24705882 0.57647059 
0.00000000 0.47843137 0.68627451 
0.00000000 0.47450980 0.68627451 
0.21568627 0.46666667 0.68235294 
0.46274510 0.46274510 0.67843137 
0.67450980 0.45882353 0.67450980 
0.85882353 0.45490196 0.65882353 
0.99607843 0.45098039 0.63529412 
1.00000000 0.45490196 0.61568627 
1.00000000 0.46666667 0.60000000 
0.00000000 0.67843137 0.68235294 
0.00000000 0.67843137 0.67843137 
0.14901961 0.67450980 0.67843137 
0.45882353 0.67058824 0.67058824 
0.66274510 0.66274510 0.66274510 
0.83137255 0.65098039 0.65098039 
0.96470588 0.63921569 0.63921569 
1.00000000 0.62745098 0.62745098 
1.00000000 0.61960784 0.61568627 
0.00000000 0.83921569 0.64313725 
0.00000000 0.83529412 0.64313725 
0.21568627 0.83137255 0.64313725 
0.46666667 0.82352941 0.64705882 
0.64705882 0.81960784 0.64705882 
0.81568627 0.81568627 0.64705882 
0.94509804 0.79215686 0.63921569 
1.00000000 0.76862745 0.62745098 
1.00000000 0.74117647 0.61960784 
0.00000000 0.94117647 0.62352941 
0.13725490 0.94117647 0.62745098 
0.33725490 0.93725490 0.63137255 
0.49803922 0.93333333 0.63529412 
0.63921569 0.92941176 0.63529412 
0.78039216 0.92549020 0.63529412 
0.92156863 0.92156863 0.63529412 
1.00000000 0.89019608 0.63137255 
1.00000000 0.85490196 0.62352941 
0.32549020 1.00000000 0.63137255 
0.36470588 1.00000000 0.63137255 
0.43529412 1.00000000 0.63137255 
0.53333333 1.00000000 0.63137255 
0.63921569 1.00000000 0.63137255 
0.75686275 1.00000000 0.63137255 
0.87450980 0.99215686 0.63529412 
0.98823529 0.98823529 0.63529412 
1.00000000 0.94117647 0.63529412 
0.46274510 1.00000000 0.63921569 
0.48235294 1.00000000 0.63921569 
0.52156863 1.00000000 0.63921569 
0.58039216 1.00000000 0.63921569 
0.65490196 1.00000000 0.63921569 
0.74117647 1.00000000 0.64313725 
0.82745098 1.00000000 0.64313725 
0.91764706 1.00000000 0.64705882 
1.00000000 1.00000000 0.65098039 
0.00000000 0.00000000 0.86666667 
0.02352941 0.00000000 0.86666667 
0.28235294 0.00000000 0.86666667 
0.47450980 0.00000000 0.86274510 
0.65490196 0.00000000 0.86274510 
0.84313725 0.00000000 0.85882353 
1.00000000 0.00000000 0.84705882 
1.00000000 0.00000000 0.78823529 
1.00000000 0.00000000 0.73333333 
0.00000000 0.06666667 0.86274510 
0.00000000 0.05882353 0.86274510 
0.25490196 0.03921569 0.86274510 
0.45882353 0.00000000 0.86274510 
0.64705882 0.00000000 0.85882353 
0.84313725 0.00000000 0.85882353 
1.00000000 0.00000000 0.84313725 
1.00000000 0.00000000 0.78431373 
1.00000000 0.00000000 0.72941176 
0.00000000 0.26274510 0.85882353 
0.00000000 0.25882353 0.85882353 
0.22745098 0.25098039 0.85490196 
0.44705882 0.24313725 0.85490196 
0.64313725 0.23529412 0.85098039 
0.83921569 0.21568627 0.85098039 
1.00000000 0.20000000 0.83137255 
1.00000000 0.21568627 0.78039216 
1.00000000 0.25098039 0.73333333 
0.00000000 0.45490196 0.85490196 
0.00000000 0.45490196 0.85098039 
0.21176471 0.45098039 0.84705882 
0.44705882 0.45098039 0.84313725 
0.64313725 0.45098039 0.83921569 
0.83137255 0.45098039 0.83529412 
0.99215686 0.45098039 0.81568627 
1.00000000 0.45490196 0.77647059 
1.00000000 0.46666667 0.74117647 
0.00000000 0.64313725 0.84313725 
0.00000000 0.64313725 0.84313725 
0.19607843 0.64313725 0.83921569 
0.45882353 0.64313725 0.83137255 
0.64705882 0.64705882 0.81960784 
0.81960784 0.64705882 0.81960784 
0.95686275 0.63921569 0.80000000 
1.00000000 0.63529412 0.77647059 
1.00000000 0.63137255 0.75294118 
0.00000000 0.83137255 0.83137255 
0.00000000 0.82745098 0.83137255 
0.22745098 0.82352941 0.82745098 
0.47058824 0.81960784 0.81960784 
0.64705882 0.81176471 0.81176471 
0.80000000 0.80000000 0.80000000 
0.92549020 0.78823529 0.78823529 
1.00000000 0.77647059 0.77647059 
1.00000000 0.76078431 0.76078431 
0.00000000 0.94117647 0.78431373 
0.15686275 0.94117647 0.78431373 
0.34509804 0.93333333 0.78431373 
0.50980392 0.92941176 0.78431373 
0.65490196 0.91764706 0.78431373 
0.78431373 0.90980392 0.78431373 
0.90980392 0.90980392 0.78039216 
1.00000000 0.88627451 0.77254902 
1.00000000 0.86274510 0.76078431 
0.33725490 1.00000000 0.75686275 
0.37647059 1.00000000 0.75686275 
0.45882353 1.00000000 0.76078431 
0.56470588 0.99607843 0.76470588 
0.67058824 0.98823529 0.76862745 
0.77254902 0.98431373 0.76862745 
0.87450980 0.98039216 0.76862745 
0.98039216 0.97647059 0.76862745 
1.00000000 0.94509804 0.76078431 
0.51372549 1.00000000 0.74901961 
0.53333333 1.00000000 0.75294118 
0.58039216 1.00000000 0.75686275 
0.63921569 1.00000000 0.76470588 
0.70196078 1.00000000 0.76470588 
0.77254902 1.00000000 0.76470588 
0.85098039 1.00000000 0.76470588 
0.92549020 1.00000000 0.76862745 
1.00000000 1.00000000 0.76862745 
0.00000000 0.00000000 0.98823529 
0.00000000 0.00000000 0.98823529 
0.25098039 0.00000000 0.98823529 
0.43921569 0.00000000 0.98431373 
0.60784314 0.00000000 0.98431373 
0.78431373 0.00000000 0.98039216 
0.96470588 0.00000000 0.97647059 
1.00000000 0.00000000 0.96470588 
1.00000000 0.00000000 0.89019608 
0.00000000 0.05098039 0.98431373 
0.00000000 0.04313725 0.98431373 
0.23137255 0.02352941 0.98431373 
0.42745098 0.00000000 0.98039216 
0.60392157 0.00000000 0.98039216 
0.78431373 0.00000000 0.97647059 
0.96078431 0.00000000 0.97254902 
1.00000000 0.00000000 0.96078431 
1.00000000 0.00000000 0.89019608 
0.00000000 0.24705882 0.97647059 
0.00000000 0.24313725 0.97647059 
0.21176471 0.24313725 0.97254902 
0.41960784 0.23921569 0.97254902 
0.60000000 0.23529412 0.97254902 
0.78039216 0.22745098 0.96862745 
0.95686275 0.21568627 0.96470588 
1.00000000 0.21568627 0.94901961 
1.00000000 0.25490196 0.88235294 
0.00000000 0.42745098 0.97254902 
0.00000000 0.42745098 0.96862745 
0.21960784 0.43137255 0.96470588 
0.43529412 0.43921569 0.96078431 
0.60784314 0.43921569 0.95686275 
0.78039216 0.44313725 0.95294118 
0.94901961 0.45098039 0.94901961 
1.00000000 0.45490196 0.93333333 
1.00000000 0.46666667 0.87843137 
0.00000000 0.60392157 0.96078431 
0.00000000 0.60392157 0.96078431 
0.23529412 0.60784314 0.95294118 
0.45882353 0.61960784 0.94509804 
0.63137255 0.63137255 0.93725490 
0.78431373 0.63137255 0.93725490 
0.93333333 0.63529412 0.93333333 
1.00000000 0.63529412 0.91372549 
1.00000000 0.63137255 0.87450980 
0.00000000 0.77647059 0.94509804 
0.00000000 0.78039216 0.94509804 
0.29019608 0.78039216 0.94117647 
0.48235294 0.78039216 0.93333333 
0.64313725 0.78431373 0.92549020 
0.78431373 0.78431373 0.91372549 
0.91372549 0.78431373 0.91372549 
1.00000000 0.77647059 0.89411765 
1.00000000 0.76862745 0.87058824 
0.04705882 0.92941176 0.92941176 
0.20000000 0.92941176 0.92941176 
0.36078431 0.92549020 0.92549020 
0.51372549 0.92156863 0.92156863 
0.65490196 0.91372549 0.91372549 
0.78431373 0.90196078 0.90196078 
0.89019608 0.89019608 0.89019608 
0.98039216 0.88235294 0.88235294 
1.00000000 0.87058824 0.87058824 
0.34901961 1.00000000 0.87843137 
0.38823529 1.00000000 0.87843137 
0.46666667 1.00000000 0.87843137 
0.56862745 0.99215686 0.87843137 
0.67843137 0.98431373 0.87843137 
0.78431373 0.97647059 0.87843137 
0.87843137 0.96862745 0.87450980 
0.96862745 0.96862745 0.87450980 
1.00000000 0.94901961 0.86666667 
0.52156863 1.00000000 0.84313725 
0.54117647 1.00000000 0.84313725 
0.58431373 1.00000000 0.84705882 
0.65098039 1.00000000 0.85098039 
0.72549020 1.00000000 0.85882353 
0.80392157 1.00000000 0.86666667 
0.87058824 1.00000000 0.86666667 
0.93725490 1.00000000 0.86666667 
1.00000000 1.00000000 0.87058824 
0.00000000 0.00000000 1.00000000 
0.00000000 0.00000000 1.00000000 
0.21960784 0.00000000 1.00000000 
0.39607843 0.00000000 1.00000000 
0.55686275 0.00000000 1.00000000 
0.71764706 0.00000000 1.00000000 
0.87843137 0.00000000 1.00000000 
1.00000000 0.00000000 1.00000000 
1.00000000 0.00000000 1.00000000 
0.00000000 0.04313725 1.00000000 
0.00000000 0.03921569 1.00000000 
0.20784314 0.02352941 1.00000000 
0.39215686 0.00000000 1.00000000 
0.55294118 0.00000000 1.00000000 
0.71764706 0.00000000 1.00000000 
0.87843137 0.00000000 1.00000000 
1.00000000 0.00000000 1.00000000 
1.00000000 0.00000000 1.00000000 
0.00000000 0.23529412 1.00000000 
0.00000000 0.23529412 1.00000000 
0.20784314 0.23529412 1.00000000 
0.39607843 0.23529412 1.00000000 
0.55686275 0.23529412 1.00000000 
0.71764706 0.23529412 1.00000000 
0.87843137 0.23529412 1.00000000 
1.00000000 0.24313725 1.00000000 
1.00000000 0.25882353 1.00000000 
0.00000000 0.40784314 1.00000000 
0.00000000 0.40784314 1.00000000 
0.23921569 0.41568627 1.00000000 
0.42352941 0.42745098 1.00000000 
0.57647059 0.43137255 1.00000000 
0.72941176 0.43529412 1.00000000 
0.88235294 0.44313725 1.00000000 
1.00000000 0.45490196 1.00000000 
1.00000000 0.47058824 1.00000000 
0.00000000 0.56862745 1.00000000 
0.00000000 0.57254902 1.00000000 
0.27450980 0.58039216 1.00000000 
0.46274510 0.60000000 1.00000000 
0.61568627 0.61568627 1.00000000 
0.74901961 0.61960784 1.00000000 
0.88235294 0.62352941 1.00000000 
1.00000000 0.62745098 1.00000000 
1.00000000 0.63137255 0.99215686 
0.00000000 0.72941176 1.00000000 
0.17254902 0.73333333 1.00000000 
0.33725490 0.73725490 1.00000000 
0.49411765 0.74901961 1.00000000 
0.63529412 0.75686275 1.00000000 
0.76470588 0.76470588 0.99215686 
0.87843137 0.76470588 0.99215686 
0.99215686 0.76862745 0.98823529 
1.00000000 0.76862745 0.97254902 
0.24705882 0.87450980 1.00000000 
0.30196078 0.87450980 1.00000000 
0.40784314 0.87450980 1.00000000 
0.53333333 0.87450980 0.99607843 
0.65490196 0.87450980 0.99215686 
0.77254902 0.87450980 0.98039216 
0.87450980 0.87450980 0.97254902 
0.97254902 0.87450980 0.97254902 
1.00000000 0.87058824 0.95686275 
0.37254902 0.99215686 0.99215686 
0.40784314 0.99215686 0.98823529 
0.47843137 0.98823529 0.98823529 
0.57647059 0.98431373 0.98431373 
0.68235294 0.98039216 0.97647059 
0.78431373 0.97254902 0.97254902 
0.87843137 0.96470588 0.96470588 
0.95686275 0.95686275 0.95686275 
1.00000000 0.94901961 0.94901961 
0.52941176 1.00000000 0.93333333 
0.54901961 1.00000000 0.93333333 
0.59215686 1.00000000 0.93333333 
0.65490196 1.00000000 0.93725490 
0.72941176 1.00000000 0.93725490 
0.80784314 1.00000000 0.94117647 
0.88235294 1.00000000 0.94509804 
0.94509804 1.00000000 0.94509804 
1.00000000 1.00000000 0.94509804 
0.00000000 0.00000000 1.00000000 
0.00000000 0.00000000 1.00000000 
0.19607843 0.00000000 1.00000000 
0.35294118 0.00000000 1.00000000 
0.49411765 0.00000000 1.00000000 
0.63529412 0.00000000 1.00000000 
0.77647059 0.00000000 1.00000000 
0.91764706 0.00000000 1.00000000 
1.00000000 0.00000000 1.00000000 
0.00000000 0.05882353 1.00000000 
0.00000000 0.05490196 1.00000000 
0.19607843 0.05490196 1.00000000 
0.35686275 0.04705882 1.00000000 
0.49803922 0.03921569 1.00000000 
0.63921569 0.03529412 1.00000000 
0.78039216 0.04705882 1.00000000 
0.91764706 0.07450980 1.00000000 
1.00000000 0.11764706 1.00000000 
0.00000000 0.23529412 1.00000000 
0.00000000 0.23529412 1.00000000 
0.22352941 0.23529412 1.00000000 
0.37254902 0.23921569 1.00000000 
0.50980392 0.24313725 1.00000000 
0.65098039 0.24705882 1.00000000 
0.78823529 0.25882353 1.00000000 
0.92156863 0.27450980 1.00000000 
1.00000000 0.29803922 1.00000000 
0.00000000 0.38823529 1.00000000 
0.11372549 0.39215686 1.00000000 
0.28235294 0.40784314 1.00000000 
0.41960784 0.41568627 1.00000000 
0.54509804 0.42352941 1.00000000 
0.67843137 0.43137255 1.00000000 
0.80392157 0.44313725 1.00000000 
0.92941176 0.45882353 1.00000000 
1.00000000 0.47450980 1.00000000 
0.08627451 0.53333333 1.00000000 
0.18823529 0.53725490 1.00000000 
0.32549020 0.55294118 1.00000000 
0.47450980 0.58039216 1.00000000 
0.60000000 0.59607843 1.00000000 
0.71372549 0.60392157 1.00000000 
0.82352941 0.60784314 1.00000000 
0.93333333 0.61960784 1.00000000 
1.00000000 0.62745098 1.00000000 
0.23137255 0.68235294 1.00000000 
0.28627451 0.68627451 1.00000000 
0.39215686 0.69411765 1.00000000 
0.51372549 0.70980392 1.00000000 
0.63529412 0.72941176 1.00000000 
0.74901961 0.74901961 1.00000000 
0.84313725 0.74901961 1.00000000 
0.93725490 0.75686275 1.00000000 
1.00000000 0.76078431 1.00000000 
0.35294118 0.81176471 1.00000000 
0.38823529 0.81568627 1.00000000 
0.46274510 0.81960784 1.00000000 
0.56078431 0.82745098 1.00000000 
0.66666667 0.83921569 1.00000000 
0.76862745 0.85098039 1.00000000 
0.86274510 0.86274510 1.00000000 
0.94117647 0.86274510 1.00000000 
1.00000000 0.86666667 1.00000000 
0.45882353 0.92156863 1.00000000 
0.48235294 0.92156863 1.00000000 
0.53725490 0.92549020 1.00000000 
0.61568627 0.92549020 1.00000000 
0.70196078 0.92941176 1.00000000 
0.78823529 0.93725490 1.00000000 
0.87450980 0.94117647 1.00000000 
0.94509804 0.94509804 1.00000000 
1.00000000 0.94509804 1.00000000 
0.55686275 1.00000000 1.00000000 
0.57254902 1.00000000 1.00000000 
0.61176471 1.00000000 1.00000000 
0.67058824 1.00000000 1.00000000 
0.74117647 1.00000000 1.00000000 
0.81568627 1.00000000 1.00000000 
0.88627451 1.00000000 1.00000000 
0.94901961 1.00000000 1.00000000 
1.00000000 1.00000000 1.00000000 
