cube_files/lowcolor_filter.cube
TITLE "Created by Polarr" 
LUT_3D_SIZE 5 
0.00000000 0.00000000 0.00000000 
0.22745098 0.00000000 0.00000000 
0.65098039 0.00000000 0.00000000 
1.00000000 0.00000000 0.00000000 
1.00000000 0.00000000 0.00000000 
0.00000000 0.25490196 0.00000000 
0.25882353 0.25882353 0.00000000 
0.67450980 0.30196078 0.00000000 
1.00000000 0.26666667 0.00000000 
1.00000000 0.20784314 0.00000000 
0.00000000 0.69019608 0.00000000 
0.25098039 0.69019608 0.00000000 
0.68627451 0.69019608 0.00000000 
1.00000000 0.63921569 0.00000000 
1.00000000 0.55294118 0.00000000 
0.00000000 0.96862745 0.00000000 
0.10196078 0.96470588 0.00000000 
0.59215686 0.96078431 0.00000000 
0.94901961 0.94901961 0.00000000 
1.00000000 0.82352941 0.00000000 
0.09019608 1.00000000 0.06666667 
0.28235294 1.00000000 0.07450980 
0.52941176 1.00000000 0.09803922 
0.77254902 1.00000000 0.13333333 
1.00000000 1.00000000 0.17647059 
0.00000000 0.00000000 0.24705882 
0.24705882 0.00000000 0.25098039 
0.65882353 0.00000000 0.29019608 
1.00000000 0.00000000 0.25490196 
1.00000000 0.00000000 0.23137255 
0.00000000 0.25882353 0.26274510 
0.26274510 0.26274510 0.26274510 
0.68235294 0.24705882 0.25490196 
1.00000000 0.21176471 0.23921569 
1.00000000 0.20392157 0.23137255 
0.00000000 0.68627451 0.22745098 
0.18039216 0.68627451 0.22745098 
0.68235294 0.68235294 0.21960784 
1.00000000 0.62352941 0.21960784 
1.00000000 0.55686275 0.23529412 
0.00000000 0.96078431 0.21568627 
0.14901961 0.95686275 0.21568627 
0.59607843 0.95294118 0.21568627 
0.94117647 0.94117647 0.22352941 
1.00000000 0.83137255 0.27450980 
0.25098039 1.00000000 0.33725490 
0.36078431 1.00000000 0.33725490 
0.56470588 1.00000000 0.34509804 
0.78823529 1.00000000 0.35686275 
1.00000000 1.00000000 0.37647059 
0.00000000 0.00000000 0.68627451 
0.30196078 0.00000000 0.68627451 
0.67450980 0.00000000 0.69019608 
1.00000000 0.00000000 0.65098039 
1.00000000 0.00000000 0.56862745 
0.00000000 0.27843137 0.69019608 
0.24705882 0.25490196 0.68627451 
0.67450980 0.23529412 0.68627451 
1.00000000 0.20392157 0.63529412 
1.00000000 0.24705882 0.57647059 
0.00000000 0.67843137 0.68235294 
0.14901961 0.67450980 0.67843137 
0.66274510 0.66274510 0.66274510 
0.96470588 0.63921569 0.63921569 
1.00000000 0.61960784 0.61568627 
0.00000000 0.94117647 0.62352941 
0.33725490 0.93725490 0.63137255 
0.63921569 0.92941176 0.63529412 
0.92156863 0.92156863 0.63529412 
1.00000000 0.85490196 0.62352941 
0.46274510 1.00000000 0.63921569 
0.52156863 1.00000000 0.63921569 
0.65490196 1.00000000 0.63921569 
0.82745098 1.00000000 0.64313725 
1.00000000 1.00000000 0.65098039 
0.00000000 0.00000000 0.98823529 
0.25098039 0.00000000 0.98823529 
0.60784314 0.00000000 0.98431373 
0.96470588 0.00000000 0.97647059 
1.00000000 0.00000000 0.89019608 
0.00000000 0.24705882 0.97647059 
0.21176471 0.24313725 0.97254902 
0.60000000 0.23529412 0.97254902 
0.95686275 0.21568627 0.96470588 
1.00000000 0.25490196 0.88235294 
0.00000000 0.60392157 0.96078431 
0.23529412 0.60784314 0.95294118 
0.63137255 0.63137255 0.93725490 
0.93333333 0.63529412 0.93333333 
1.00000000 0.63137255 0.87450980 
0.04705882 0.92941176 0.92941176 
0.36078431 0.92549020 0.92549020 
0.65490196 0.91372549 0.91372549 
0.89019608 0.89019608 0.89019608 
1.00000000 0.87058824 0.87058824 
0.52156863 1.00000000 0.84313725 
0.58431373 1.00000000 0.84705882 
0.72549020 1.00000000 0.85882353 
0.87058824 1.00000000 0.86666667 
1.00000000 1.00000000 0.87058824 
0.00000000 0.00000000 1.00000000 
0.19607843 0.00000000 1.00000000 
0.49411765 0.00000000 1.00000000 
0.77647059 0.00000000 1.00000000 
1.00000000 0.00000000 1.00000000 
0.00000000 0.23529412 1.00000000 
0.22352941 0.23529412 1.00000000 
0.50980392 0.24313725 1.00000000 
0.78823529 0.25882353 1.00000000 
1.00000000 0.29803922 1.00000000 
0.08627451 0.53333333 1.00000000 
0.32549020 0.55294118 1.00000000 
0.60000000 0.59607843 1.00000000 
0.82352941 0.60784314 1.00000000 
1.00000000 0.62745098 1.00000000 
0.35294118 0.81176471 1.00000000 
0.46274510 0.81960784 1.00000000 
0.66666667 0.83921569 1.00000000 
0.86274510 0.86274510 1.00000000 
1.00000000 0.86666667 1.00000000 
0.55686275 1.00000000 1.00000000 
0.61176471 1.00000000 1.00000000 
0.74117647 1.00000000 1.00000000 
0.88627451 1.00000000 1.00000000 
1.00000000 1.00000000 1.00000000 
