cube_files/most_realistic.cube
TITLE "Created by Polarr" 
LUT_3D_SIZE 33 
0.00000000 0.00000000 0.00000000 
0.00000000 0.00392157 0.00000000 
0.01568627 0.00392157 0.00000000 
0.02745098 0.00784314 0.00392157 
0.04705882 0.01568627 0.01176471 
0.07058824 0.01568627 0.01176471 
0.09411765 0.01568627 0.01176471 
0.12156863 0.01568627 0.01568627 
0.15686275 0.01960784 0.01568627 
0.19607843 0.01960784 0.01960784 
0.24705882 0.02352941 0.01960784 
0.30196078 0.02352941 0.02352941 
0.36862745 0.02745098 0.02745098 
0.42352941 0.03137255 0.02745098 
0.49411765 0.03137255 0.03137255 
0.56470588 0.03529412 0.03529412 
0.63529412 0.04313725 0.04313725 
0.70588235 0.04705882 0.04705882 
0.77254902 0.04705882 0.05098039 
0.82745098 0.05098039 0.05490196 
0.87450980 0.05490196 0.05882353 
0.90980392 0.05882353 0.05882353 
0.94117647 0.05882353 0.06274510 
0.96078431 0.05882353 0.06274510 
0.98039216 0.06274510 0.06666667 
0.99215686 0.06274510 0.06666667 
1.00000000 0.06274510 0.06666667 
1.00000000 0.06666667 0.07058824 
1.00000000 0.06666667 0.07058824 
1.00000000 0.06666667 0.07058824 
1.00000000 0.06666667 0.07058824 
1.00000000 0.06666667 0.07058824 
1.00000000 0.06666667 0.07058824 
0.00000000 0.01568627 0.00000000 
0.00000000 0.01960784 0.00392157 
0.01176471 0.01960784 0.00784314 
0.02745098 0.02352941 0.00784314 
0.04705882 0.02352941 0.01176471 
0.06666667 0.02352941 0.01176471 
0.09411765 0.02352941 0.01176471 
0.12156863 0.02352941 0.01568627 
0.15686275 0.02352941 0.01568627 
0.19607843 0.01960784 0.01960784 
0.24313725 0.02352941 0.01960784 
0.29803922 0.02352941 0.02352941 
0.36470588 0.02745098 0.02745098 
0.42352941 0.03137255 0.02745098 
0.49019608 0.03137255 0.03137255 
0.56078431 0.03529412 0.03529412 
0.63529412 0.04313725 0.04313725 
0.70588235 0.04705882 0.04705882 
0.77254902 0.04705882 0.05098039 
0.82745098 0.05098039 0.05490196 
0.87450980 0.05490196 0.05882353 
0.90980392 0.05882353 0.05882353 
0.94117647 0.05882353 0.06274510 
0.96078431 0.05882353 0.06274510 
0.98039216 0.06274510 0.06666667 
0.99215686 0.06274510 0.06666667 
1.00000000 0.06274510 0.06666667 
1.00000000 0.06666667 0.07058824 
1.00000000 0.06666667 0.07058824 
1.00000000 0.06666667 0.07058824 
1.00000000 0.06666667 0.07058824 
1.00000000 0.06666667 0.07058824 
1.00000000 0.06666667 0.07058824 
0.00000000 0.03529412 0.00784314 
0.00000000 0.03529412 0.00784314 
0.01176471 0.03921569 0.01176471 
0.02745098 0.03921569 0.01176471 
0.04313725 0.03921569 0.01176471 
0.06666667 0.03921569 0.01176471 
0.09019608 0.03921569 0.01568627 
0.12156863 0.03529412 0.01568627 
0.15294118 0.03921569 0.01568627 
0.19607843 0.03529412 0.01960784 
0.24313725 0.03529412 0.01960784 
0.30196078 0.03529412 0.02352941 
0.36470588 0.03137255 0.02745098 
0.42352941 0.03137255 0.02745098 
0.49019608 0.03137255 0.03137255 
0.56078431 0.03529412 0.03529412 
0.63137255 0.04313725 0.04313725 
0.70588235 0.04705882 0.04705882 
0.76862745 0.04705882 0.05098039 
0.82745098 0.05098039 0.05490196 
0.87450980 0.05490196 0.05882353 
0.90980392 0.05882353 0.05882353 
0.94117647 0.05882353 0.06274510 
0.96078431 0.05882353 0.06274510 
0.98039216 0.06274510 0.06666667 
0.99215686 0.06274510 0.06666667 
1.00000000 0.06274510 0.06666667 
1.00000000 0.06666667 0.07058824 
1.00000000 0.06666667 0.07058824 
1.00000000 0.06666667 0.07058824 
1.00000000 0.06666667 0.07058824 
1.00000000 0.06666667 0.07058824 
1.00000000 0.06666667 0.07058824 
0.00000000 0.05490196 0.01176471 
0.00000000 0.05490196 0.01176471 
0.00784314 0.05490196 0.01176471 
0.02352941 0.05490196 0.01176471 
0.04313725 0.05490196 0.01176471 
0.06666667 0.05490196 0.01568627 
0.09019608 0.05490196 0.01568627 
0.12156863 0.05490196 0.01568627 
0.15294118 0.05490196 0.01960784 
0.19607843 0.05490196 0.01960784 
0.24313725 0.05490196 0.02352941 
0.30196078 0.05490196 0.02745098 
0.36078431 0.05490196 0.02745098 
0.41960784 0.05490196 0.03137255 
0.48627451 0.05098039 0.03529412 
0.55686275 0.04705882 0.03921569 
0.63137255 0.04705882 0.04313725 
0.70196078 0.04705882 0.04705882 
0.76862745 0.04705882 0.05098039 
0.82745098 0.05098039 0.05490196 
0.87450980 0.05490196 0.05882353 
0.90980392 0.05882353 0.05882353 
0.93725490 0.05882353 0.06274510 
0.96078431 0.05882353 0.06274510 
0.98039216 0.06274510 0.06666667 
0.99215686 0.06274510 0.06666667 
1.00000000 0.06274510 0.06666667 
1.00000000 0.06666667 0.07058824 
1.00000000 0.06666667 0.07058824 
1.00000000 0.06666667 0.07058824 
1.00000000 0.06666667 0.07058824 
1.00000000 0.06666667 0.07058824 
1.00000000 0.06666667 0.07058824 
0.00000000 0.07450980 0.01568627 
0.00000000 0.07450980 0.01568627 
0.00392157 0.07450980 0.01176471 
0.02352941 0.07058824 0.01568627 
0.04313725 0.07058824 0.01568627 
0.06666667 0.07058824 0.01568627 
0.09019608 0.07058824 0.01568627 
0.11764706 0.07450980 0.01960784 
0.15294118 0.07058824 0.01960784 
0.19607843 0.07450980 0.02352941 
0.24313725 0.07450980 0.02352941 
0.29803922 0.07450980 0.02745098 
0.35686275 0.07843137 0.03137255 
0.41568627 0.07450980 0.03529412 
0.48627451 0.07843137 0.03921569 
0.56078431 0.07450980 0.04313725 
0.63137255 0.07450980 0.04705882 
0.70196078 0.07450980 0.05098039 
0.76862745 0.06666667 0.05098039 
0.82352941 0.06274510 0.05490196 
0.87058824 0.05490196 0.05882353 
0.90980392 0.05882353 0.05882353 
0.93725490 0.05882353 0.06274510 
0.96078431 0.05882353 0.06274510 
0.97647059 0.06274510 0.06666667 
0.99215686 0.06274510 0.06666667 
1.00000000 0.06274510 0.06666667 
1.00000000 0.06666667 0.07058824 
1.00000000 0.06666667 0.07058824 
1.00000000 0.06666667 0.07058824 
1.00000000 0.06666667 0.07058824 
1.00000000 0.06666667 0.07058824 
1.00000000 0.06666667 0.07058824 
0.00000000 0.09411765 0.01568627 
0.00000000 0.09019608 0.01568627 
0.00000000 0.09019608 0.01568627 
0.01960784 0.09411765 0.01568627 
0.04313725 0.09411765 0.01568627 
0.06274510 0.09019608 0.01960784 
0.08627451 0.09019608 0.01960784 
0.11764706 0.09411765 0.01960784 
0.15294118 0.09411765 0.02352941 
0.19215686 0.09411765 0.02352941 
0.23921569 0.09411765 0.02745098 
0.29411765 0.09803922 0.03137255 
0.35686275 0.09803922 0.03137255 
0.41568627 0.09803922 0.03529412 
0.48235294 0.09803922 0.03921569 
0.55686275 0.10196078 0.04313725 
0.63137255 0.10196078 0.04705882 
0.70196078 0.10196078 0.05490196 
0.76862745 0.09803922 0.05490196 
0.82352941 0.09803922 0.05882353 
0.87058824 0.09019608 0.06274510 
0.90588235 0.08627451 0.06274510 
0.93725490 0.07450980 0.06274510 
0.96078431 0.05882353 0.06274510 
0.97647059 0.06274510 0.06666667 
0.99215686 0.06274510 0.06666667 
1.00000000 0.06274510 0.06666667 
1.00000000 0.06666667 0.07058824 
1.00000000 0.06666667 0.07058824 
1.00000000 0.06666667 0.07058824 
1.00000000 0.06666667 0.07058824 
1.00000000 0.06666667 0.07058824 
1.00000000 0.06666667 0.07058824 
0.00000000 0.11372549 0.01568627 
0.00000000 0.11372549 0.01568627 
0.00000000 0.11372549 0.01568627 
0.01960784 0.11764706 0.01568627 
0.03921569 0.11764706 0.01960784 
0.06274510 0.11764706 0.01960784 
0.08627451 0.11372549 0.01960784 
0.11372549 0.11764706 0.02352941 
0.14901961 0.11764706 0.02352941 
0.18823529 0.11764706 0.02745098 
0.23921569 0.12156863 0.02745098 
0.29411765 0.12156863 0.03137255 
0.35294118 0.12156863 0.03529412 
0.41176471 0.12156863 0.03921569 
0.48627451 0.12549020 0.04313725 
0.55686275 0.12549020 0.04705882 
0.62745098 0.12549020 0.05098039 
0.70196078 0.12549020 0.05490196 
0.76862745 0.12941176 0.05882353 
0.82352941 0.12549020 0.06274510 
0.87058824 0.12156863 0.06274510 
0.90588235 0.11764706 0.06666667 
0.93725490 0.11372549 0.06666667 
0.96078431 0.10588235 0.07058824 
0.97647059 0.09803922 0.07058824 
0.99215686 0.09019608 0.07058824 
1.00000000 0.07450980 0.07058824 
1.00000000 0.06666667 0.07058824 
1.00000000 0.06666667 0.07058824 
1.00000000 0.06666667 0.07058824 
1.00000000 0.06666667 0.07058824 
1.00000000 0.06666667 0.07058824 
1.00000000 0.06666667 0.07058824 
0.00000000 0.14509804 0.01960784 
0.00000000 0.14509804 0.01960784 
0.00000000 0.14509804 0.01960784 
0.01568627 0.14117647 0.01960784 
0.03529412 0.14117647 0.01960784 
0.05882353 0.14509804 0.01960784 
0.08627451 0.14509804 0.02352941 
0.11372549 0.14509804 0.02352941 
0.14901961 0.14509804 0.02745098 
0.18823529 0.14509804 0.02745098 
0.23529412 0.14509804 0.03137255 
0.29019608 0.14901961 0.03529412 
0.35294118 0.14901961 0.03921569 
0.41176471 0.15294118 0.04313725 
0.48235294 0.15294118 0.04705882 
0.55294118 0.15294118 0.05098039 
0.62745098 0.15686275 0.05490196 
0.69803922 0.15686275 0.05882353 
0.76470588 0.15686275 0.06274510 
0.82352941 0.15686275 0.06666667 
0.87058824 0.15294118 0.06666667 
0.90588235 0.15294118 0.07058824 
0.93725490 0.14901961 0.07058824 
0.96078431 0.14117647 0.07450980 
0.97647059 0.13725490 0.07450980 
0.99215686 0.12941176 0.07450980 
1.00000000 0.12549020 0.07450980 
1.00000000 0.11372549 0.07450980 
1.00000000 0.10588235 0.07450980 
1.00000000 0.09411765 0.07450980 
1.00000000 0.07843137 0.07058824 
1.00000000 0.06666667 0.07058824 
1.00000000 0.06666667 0.07058824 
0.00000000 0.17647059 0.01960784 
0.00000000 0.17647059 0.01960784 
0.00000000 0.17647059 0.01960784 
0.00784314 0.17647059 0.02352941 
0.03137255 0.17647059 0.02352941 
0.05882353 0.17647059 0.02352941 
0.08235294 0.17647059 0.02352941 
0.11372549 0.17647059 0.02745098 
0.14901961 0.17647059 0.03137255 
0.18823529 0.17647059 0.03137255 
0.23529412 0.18039216 0.03529412 
0.29019608 0.18039216 0.03921569 
0.35294118 0.18431373 0.04313725 
0.41176471 0.18431373 0.04705882 
0.47843137 0.18431373 0.05098039 
0.54901961 0.18823529 0.05490196 
0.62352941 0.18823529 0.05882353 
0.69803922 0.18823529 0.06274510 
0.76470588 0.18823529 0.06666667 
0.81960784 0.19215686 0.07058824 
0.86666667 0.18823529 0.07058824 
0.90588235 0.18823529 0.07450980 
0.93333333 0.18431373 0.07450980 
0.95686275 0.18039216 0.07843137 
0.97647059 0.17254902 0.07843137 
0.98823529 0.16862745 0.07843137 
1.00000000 0.16078431 0.07843137 
1.00000000 0.15294118 0.07843137 
1.00000000 0.14901961 0.07843137 
1.00000000 0.14117647 0.07843137 
1.00000000 0.12941176 0.07843137 
1.00000000 0.12156863 0.07450980 
1.00000000 0.10980392 0.07450980 
0.00000000 0.21568627 0.02352941 
0.00000000 0.21568627 0.02352941 
0.00000000 0.21176471 0.02352941 
0.00392157 0.21568627 0.02745098 
0.02745098 0.21568627 0.02745098 
0.05098039 0.21176471 0.02745098 
0.07843137 0.21568627 0.03137255 
0.10980392 0.21568627 0.03137255 
0.14509804 0.21568627 0.03529412 
0.18431373 0.21568627 0.03529412 
0.23137255 0.21568627 0.03921569 
0.28627451 0.21960784 0.04313725 
0.34901961 0.21960784 0.04705882 
0.40784314 0.22352941 0.05098039 
0.47843137 0.22352941 0.05490196 
0.54901961 0.22745098 0.05882353 
0.62352941 0.22745098 0.06274510 
0.69803922 0.23137255 0.06666667 
0.76470588 0.23137255 0.07058824 
0.82352941 0.23137255 0.07450980 
0.86666667 0.23137255 0.07843137 
0.90588235 0.22745098 0.07843137 
0.93333333 0.22352941 0.08235294 
0.95686275 0.21960784 0.08235294 
0.97647059 0.21568627 0.08235294 
0.98823529 0.21176471 0.08235294 
1.00000000 0.20392157 0.08235294 
1.00000000 0.19607843 0.08627451 
1.00000000 0.18823529 0.08235294 
1.00000000 0.18039216 0.08235294 
1.00000000 0.17647059 0.08235294 
1.00000000 0.16862745 0.08235294 
1.00000000 0.15686275 0.08235294 
0.00000000 0.25882353 0.03137255 
0.00000000 0.25882353 0.03137255 
0.00000000 0.25882353 0.03137255 
0.00000000 0.25882353 0.03137255 
0.01960784 0.25882353 0.03529412 
0.04705882 0.25882353 0.03529412 
0.07843137 0.25882353 0.03529412 
0.10588235 0.26274510 0.03529412 
0.14509804 0.25882353 0.03921569 
0.18431373 0.26274510 0.04313725 
0.23137255 0.25882353 0.04313725 
0.28627451 0.26274510 0.04705882 
0.34901961 0.26666667 0.05098039 
0.40784314 0.26666667 0.05490196 
0.47843137 0.27058824 0.05882353 
0.54901961 0.27058824 0.06274510 
0.62352941 0.27450980 0.07058824 
0.69411765 0.27450980 0.07058824 
0.76078431 0.27450980 0.07450980 
0.82352941 0.27843137 0.07843137 
0.86666667 0.27450980 0.08235294 
0.90196078 0.27450980 0.08627451 
0.93333333 0.27058824 0.08627451 
0.95686275 0.26666667 0.09019608 
0.97647059 0.26274510 0.09019608 
0.98823529 0.25490196 0.09019608 
0.99607843 0.24705882 0.09019608 
1.00000000 0.24313725 0.09019608 
1.00000000 0.23529412 0.09019608 
1.00000000 0.22745098 0.09019608 
1.00000000 0.21960784 0.08627451 
1.00000000 0.21176471 0.08627451 
1.00000000 0.20392157 0.08627451 
0.00000000 0.31372549 0.03921569 
0.00000000 0.30980392 0.03921569 
0.00000000 0.30980392 0.03921569 
0.00000000 0.30980392 0.03921569 
0.00784314 0.31372549 0.03921569 
0.04313725 0.31372549 0.03921569 
0.07450980 0.31372549 0.04313725 
0.10588235 0.31372549 0.04313725 
0.14117647 0.31372549 0.04313725 
0.18431373 0.31372549 0.04705882 
0.23137255 0.31372549 0.05098039 
0.28627451 0.31372549 0.05490196 
0.34509804 0.31372549 0.05490196 
0.40392157 0.31764706 0.05882353 
0.47450980 0.31764706 0.06666667 
0.54509804 0.32156863 0.07058824 
0.61960784 0.32549020 0.07450980 
0.69411765 0.32549020 0.07843137 
0.76470588 0.32941176 0.08235294 
0.81960784 0.32941176 0.08627451 
0.86666667 0.32941176 0.09019608 
0.90588235 0.32549020 0.09019608 
0.93333333 0.32156863 0.09411765 
0.95686275 0.31764706 0.09411765 
0.97254902 0.31372549 0.09411765 
0.98823529 0.30980392 0.09411765 
0.99607843 0.30196078 0.09411765 
1.00000000 0.29411765 0.09411765 
1.00000000 0.28627451 0.09411765 
1.00000000 0.27843137 0.09411765 
1.00000000 0.27058824 0.09411765 
1.00000000 0.26274510 0.09019608 
1.00000000 0.25490196 0.09019608 
0.00000000 0.37254902 0.04705882 
0.00000000 0.37254902 0.04705882 
0.00000000 0.37254902 0.04313725 
0.00000000 0.36862745 0.04313725 
0.00000000 0.36862745 0.04313725 
0.03529412 0.37254902 0.04705882 
0.06666667 0.37254902 0.04705882 
0.10196078 0.37254902 0.05098039 
0.13725490 0.37254902 0.05098039 
0.18039216 0.37254902 0.05490196 
0.22745098 0.37254902 0.05882353 
0.28235294 0.37254902 0.05882353 
0.34509804 0.37254902 0.06274510 
0.40392157 0.37254902 0.06666667 
0.47450980 0.37647059 0.07058824 
0.54509804 0.38039216 0.07450980 
0.61960784 0.38039216 0.08235294 
0.69411765 0.38431373 0.08627451 
0.76078431 0.38431373 0.09019608 
0.81960784 0.38823529 0.09411765 
0.86666667 0.38823529 0.09803922 
0.90196078 0.38431373 0.09803922 
0.92941176 0.38039216 0.09803922 
0.95294118 0.37647059 0.10196078 
0.97254902 0.37254902 0.10196078 
0.98823529 0.36470588 0.10196078 
0.99607843 0.35686275 0.10588235 
1.00000000 0.35294118 0.10196078 
1.00000000 0.34509804 0.10196078 
1.00000000 0.33725490 0.10196078 
1.00000000 0.32941176 0.10196078 
1.00000000 0.31764706 0.10196078 
1.00000000 0.30980392 0.09803922 
0.00392157 0.42745098 0.05098039 
0.00392157 0.42745098 0.05098039 
0.00392157 0.42745098 0.05098039 
0.00392157 0.42745098 0.05098039 
0.00392157 0.42745098 0.05098039 
0.02352941 0.42745098 0.05098039 
0.06274510 0.42745098 0.05490196 
0.09411765 0.42745098 0.05490196 
0.13725490 0.42745098 0.05882353 
0.18039216 0.42745098 0.06274510 
0.22745098 0.42745098 0.06274510 
0.28235294 0.42745098 0.06666667 
0.34509804 0.42745098 0.07058824 
0.40392157 0.42745098 0.07058824 
0.47058824 0.43137255 0.07843137 
0.54509804 0.43137255 0.08235294 
0.61960784 0.43529412 0.08627451 
0.69411765 0.43921569 0.09019608 
0.76078431 0.43921569 0.09803922 
0.81960784 0.43921569 0.09803922 
0.86666667 0.43921569 0.10196078 
0.90196078 0.43529412 0.10588235 
0.92941176 0.43529412 0.10588235 
0.95294118 0.43137255 0.10588235 
0.97254902 0.42352941 0.10588235 
0.98431373 0.41960784 0.10980392 
0.99607843 0.41176471 0.10980392 
1.00000000 0.40784314 0.10980392 
1.00000000 0.40000000 0.10980392 
1.00000000 0.39215686 0.10980392 
1.00000000 0.38039216 0.10588235 
1.00000000 0.37254902 0.10588235 
1.00000000 0.36470588 0.10588235 
0.00784314 0.49803922 0.06274510 
0.00784314 0.49803922 0.06274510 
0.00784314 0.49411765 0.06274510 
0.00784314 0.49411765 0.06274510 
0.00784314 0.49411765 0.06274510 
0.00784314 0.49411765 0.06274510 
0.05490196 0.49411765 0.06274510 
0.09411765 0.49411765 0.06666667 
0.12941176 0.49411765 0.06666667 
0.17254902 0.49411765 0.07058824 
0.22352941 0.49411765 0.07058824 
0.27843137 0.49019608 0.07450980 
0.34117647 0.49411765 0.07843137 
0.40392157 0.49411765 0.08235294 
0.47058824 0.49411765 0.08627451 
0.54509804 0.49411765 0.09019608 
0.61960784 0.49803922 0.09411765 
0.69411765 0.50196078 0.10196078 
0.76078431 0.50196078 0.10588235 
0.81960784 0.50196078 0.10588235 
0.86666667 0.50588235 0.10980392 
0.90196078 0.50196078 0.11372549 
0.92941176 0.49803922 0.11372549 
0.95294118 0.49411765 0.11372549 
0.97254902 0.49019608 0.11372549 
0.98431373 0.48235294 0.11372549 
0.99607843 0.47450980 0.11372549 
1.00000000 0.47058824 0.11764706 
1.00000000 0.46274510 0.11764706 
1.00000000 0.45490196 0.11764706 
1.00000000 0.44313725 0.11372549 
1.00000000 0.43529412 0.11372549 
1.00000000 0.42745098 0.11372549 
0.01176471 0.56078431 0.06666667 
0.01176471 0.56078431 0.06666667 
0.01176471 0.56078431 0.06666667 
0.01176471 0.56078431 0.06666667 
0.01176471 0.56078431 0.06666667 
0.01176471 0.56078431 0.06666667 
0.03529412 0.56078431 0.07058824 
0.08235294 0.56078431 0.07058824 
0.12549020 0.56078431 0.07450980 
0.16862745 0.56078431 0.07843137 
0.21568627 0.56078431 0.08235294 
0.27450980 0.56078431 0.08235294 
0.34117647 0.56078431 0.08627451 
0.40000000 0.56078431 0.09019608 
0.47058824 0.56078431 0.09411765 
0.54117647 0.56078431 0.09803922 
0.61960784 0.56078431 0.10588235 
0.69411765 0.56470588 0.10980392 
0.76078431 0.56862745 0.10980392 
0.81960784 0.56862745 0.11372549 
0.86274510 0.56862745 0.11764706 
0.90196078 0.56470588 0.11764706 
0.92941176 0.56078431 0.11764706 
0.95294118 0.55686275 0.12156863 
0.96862745 0.55294118 0.11764706 
0.98431373 0.54901961 0.11764706 
0.99607843 0.54117647 0.12156863 
1.00000000 0.53333333 0.12156863 
1.00000000 0.52549020 0.12156863 
1.00000000 0.51764706 0.12156863 
1.00000000 0.50980392 0.12156863 
1.00000000 0.49803922 0.11764706 
1.00000000 0.49019608 0.11764706 
0.01960784 0.63137255 0.07843137 
0.01960784 0.63137255 0.07843137 
0.01960784 0.63137255 0.07843137 
0.01960784 0.63137255 0.07843137 
0.01960784 0.63137255 0.07843137 
0.01960784 0.63137255 0.07450980 
0.01960784 0.63137255 0.07450980 
0.07058824 0.63137255 0.07843137 
0.11764706 0.63137255 0.08235294 
0.16078431 0.63137255 0.08627451 
0.21176471 0.63137255 0.09019608 
0.27058824 0.63137255 0.09019608 
0.33725490 0.63137255 0.09411765 
0.40000000 0.63137255 0.09803922 
0.47058824 0.63137255 0.10588235 
0.54509804 0.63137255 0.10980392 
0.61960784 0.63137255 0.10980392 
0.69019608 0.63137255 0.11372549 
0.75686275 0.63137255 0.11764706 
0.81568627 0.63529412 0.12156863 
0.86274510 0.63137255 0.12156863 
0.89803922 0.62745098 0.12156863 
0.92941176 0.62352941 0.12549020 
0.95294118 0.62352941 0.12549020 
0.96862745 0.61960784 0.12549020 
0.98431373 0.61176471 0.12156863 
0.99607843 0.60392157 0.12549020 
1.00000000 0.59607843 0.12549020 
1.00000000 0.58823529 0.12549020 
1.00000000 0.58039216 0.12549020 
1.00000000 0.57254902 0.12549020 
1.00000000 0.56470588 0.12549020 
1.00000000 0.55686275 0.12156863 
0.02352941 0.70196078 0.08627451 
0.02352941 0.70196078 0.08627451 
0.02352941 0.70196078 0.08627451 
0.02352941 0.70196078 0.08627451 
0.02352941 0.70196078 0.08627451 
0.02352941 0.69803922 0.08627451 
0.02352941 0.69803922 0.08627451 
0.05098039 0.69803922 0.08627451 
0.10588235 0.69803922 0.09019608 
0.15294118 0.69803922 0.09411765 
0.20784314 0.69803922 0.09803922 
0.26666667 0.69803922 0.10196078 
0.33333333 0.69803922 0.10588235 
0.39607843 0.69803922 0.10588235 
0.46666667 0.69803922 0.10980392 
0.54117647 0.69803922 0.11372549 
0.61568627 0.69803922 0.11764706 
0.69019608 0.69411765 0.11764706 
0.75686275 0.69411765 0.12156863 
0.81568627 0.69411765 0.12549020 
0.86274510 0.69411765 0.12549020 
0.90196078 0.69019608 0.12549020 
0.92549020 0.68627451 0.12941176 
0.94901961 0.68235294 0.12941176 
0.96862745 0.67843137 0.12941176 
0.98431373 0.67450980 0.12941176 
0.99607843 0.66666667 0.12941176 
1.00000000 0.66274510 0.12941176 
1.00000000 0.65490196 0.12941176 
1.00000000 0.64705882 0.12941176 
1.00000000 0.63529412 0.12941176 
1.00000000 0.62745098 0.12941176 
1.00000000 0.61960784 0.12941176 
0.03137255 0.76470588 0.09411765 
0.03137255 0.76078431 0.09411765 
0.03137255 0.76078431 0.09411765 
0.03137255 0.76078431 0.09411765 
0.03137255 0.76078431 0.09411765 
0.03137255 0.76078431 0.09411765 
0.03137255 0.76078431 0.09411765 
0.03137255 0.76078431 0.09411765 
0.09019608 0.76078431 0.09803922 
0.14117647 0.76078431 0.10196078 
0.19607843 0.75686275 0.10196078 
0.25490196 0.75686275 0.10588235 
0.32156863 0.75686275 0.10980392 
0.38823529 0.75686275 0.11372549 
0.46274510 0.75686275 0.11764706 
0.53725490 0.75686275 0.11764706 
0.61568627 0.75686275 0.12156863 
0.68627451 0.75686275 0.12156863 
0.75686275 0.75294118 0.12549020 
0.81176471 0.75294118 0.12941176 
0.85882353 0.75294118 0.12941176 
0.89803922 0.74901961 0.12941176 
0.92549020 0.74509804 0.12941176 
0.94901961 0.74117647 0.13333333 
0.96862745 0.73725490 0.13333333 
0.98431373 0.72941176 0.13333333 
0.99607843 0.72549020 0.13333333 
1.00000000 0.72156863 0.13333333 
1.00000000 0.71372549 0.13333333 
1.00000000 0.70588235 0.13333333 
1.00000000 0.69803922 0.13333333 
1.00000000 0.69019608 0.13333333 
1.00000000 0.68235294 0.13333333 
0.03921569 0.81176471 0.10196078 
0.03921569 0.81176471 0.10196078 
0.03921569 0.81176471 0.10196078 
0.03921569 0.81176471 0.10196078 
0.03921569 0.81176471 0.10196078 
0.03921569 0.81176471 0.10196078 
0.03921569 0.81176471 0.10196078 
0.03921569 0.80784314 0.10196078 
0.07058824 0.80784314 0.10196078 
0.12549020 0.80784314 0.10588235 
0.18039216 0.80784314 0.10980392 
0.24313725 0.80784314 0.11372549 
0.30980392 0.80784314 0.11372549 
0.37647059 0.80784314 0.11764706 
0.45490196 0.80784314 0.12156863 
0.53333333 0.80392157 0.12156863 
0.60784314 0.80392157 0.12549020 
0.68235294 0.80784314 0.12549020 
0.75294118 0.80392157 0.12941176 
0.81176471 0.80392157 0.12941176 
0.85882353 0.80000000 0.13333333 
0.89411765 0.80000000 0.13333333 
0.92549020 0.79607843 0.13333333 
0.94901961 0.79215686 0.13333333 
0.96862745 0.78823529 0.13725490 
0.98431373 0.78039216 0.13725490 
0.99607843 0.77647059 0.13725490 
1.00000000 0.77254902 0.13725490 
1.00000000 0.76862745 0.13725490 
1.00000000 0.76078431 0.13725490 
1.00000000 0.75294118 0.13725490 
1.00000000 0.74509804 0.13725490 
1.00000000 0.73725490 0.13725490 
0.04313725 0.85098039 0.10588235 
0.04313725 0.85098039 0.10588235 
0.04313725 0.85098039 0.10588235 
0.04313725 0.85098039 0.10588235 
0.04313725 0.85098039 0.10588235 
0.04313725 0.85098039 0.10588235 
0.04313725 0.85098039 0.10588235 
0.04313725 0.85098039 0.10588235 
0.04313725 0.85098039 0.10588235 
0.11372549 0.85098039 0.10980392 
0.16862745 0.84705882 0.11372549 
0.23137255 0.84705882 0.11372549 
0.30196078 0.84705882 0.11764706 
0.36470588 0.84705882 0.12156863 
0.44313725 0.84705882 0.12156863 
0.52156863 0.84705882 0.12549020 
0.60000000 0.84705882 0.12941176 
0.67843137 0.84705882 0.12941176 
0.74509804 0.84313725 0.13333333 
0.80392157 0.84313725 0.13333333 
0.85490196 0.84313725 0.13725490 
0.89411765 0.83921569 0.13725490 
0.92156863 0.83529412 0.13725490 
0.94509804 0.83529412 0.13725490 
0.96470588 0.83137255 0.13725490 
0.98039216 0.82745098 0.13725490 
0.99607843 0.82352941 0.14117647 
1.00000000 0.81568627 0.14117647 
1.00000000 0.81176471 0.14117647 
1.00000000 0.80784314 0.13725490 
1.00000000 0.80000000 0.13725490 
1.00000000 0.79607843 0.13725490 
1.00000000 0.79215686 0.13725490 
0.04705882 0.88235294 0.10980392 
0.04705882 0.88235294 0.10980392 
0.04705882 0.88235294 0.10980392 
0.04705882 0.88235294 0.10980392 
0.04705882 0.88235294 0.10980392 
0.04705882 0.88235294 0.10980392 
0.04705882 0.88235294 0.10980392 
0.04705882 0.88235294 0.10980392 
0.04705882 0.87843137 0.10980392 
0.09411765 0.87843137 0.11372549 
0.15294118 0.87843137 0.11372549 
