cube_files/most_realistic.cube
TITLE "Created by Polarr" 
LUT_3D_SIZE 5 
0.00000000 0.00000000 0.00000000 
0.15686275 0.01960784 0.01568627 
0.63529412 0.04313725 0.04313725 
0.98039216 0.06274510 0.06666667 
1.00000000 0.06666667 0.07058824 
0.00000000 0.17647059 0.01960784 
0.14901961 0.17647059 0.03137255 
0.62352941 0.18823529 0.05882353 
0.97647059 0.17254902 0.07843137 
1.00000000 0.10980392 0.07450980 
0.01960784 0.63137255 0.07843137 
0.11764706 0.63137255 0.08235294 
0.61960784 0.63137255 0.10980392 
0.96862745 0.61960784 0.12549020 
1.00000000 0.55686275 0.12156863 
0.05882353 0.94117647 0.11764706 
0.05882353 0.94117647 0.11764706 
0.54509804 0.94117647 0.13333333 
0.95686275 0.93725490 0.14901961 
1.00000000 0.91372549 0.14901961 
0.07450980 1.00000000 0.12549020 
0.07450980 1.00000000 0.12549020 
0.41568627 1.00000000 0.13725490 
0.91372549 1.00000000 0.15686275 
1.00000000 1.00000000 0.16470588 
0.00000000 0.01568627 0.20000000 
0.15686275 0.01960784 0.18823529 
0.63529412 0.04705882 0.20000000 
0.98039216 0.06666667 0.18431373 
1.00000000 0.06666667 0.15294118 
0.00000000 0.17254902 0.18039216 
0.14509804 0.17647059 0.18039216 
0.63137255 0.17254902 0.18431373 
0.97647059 0.14117647 0.17254902 
1.00000000 0.06666667 0.14117647 
0.01960784 0.63529412 0.16862745 
0.08627451 0.62745098 0.16862745 
0.61568627 0.62745098 0.18039216 
0.97254902 0.60392157 0.17254902 
1.00000000 0.54509804 0.14901961 
0.05882353 0.94117647 0.11764706 
0.05882353 0.94117647 0.11764706 
0.53333333 0.94117647 0.13333333 
0.95686275 0.93333333 0.14901961 
1.00000000 0.91372549 0.14901961 
0.07450980 1.00000000 0.12549020 
0.07450980 1.00000000 0.12549020 
0.43137255 1.00000000 0.13725490 
0.91372549 1.00000000 0.15686275 
1.00000000 1.00000000 0.16470588 
0.00000000 0.02352941 0.72549020 
0.16078431 0.02745098 0.70980392 
0.64313725 0.05490196 0.69411765 
0.97647059 0.07450980 0.68235294 
1.00000000 0.07843137 0.61176471 
0.00000000 0.17254902 0.69411765 
0.12549020 0.16470588 0.69019608 
0.63137255 0.16470588 0.67843137 
0.97647059 0.12549020 0.65098039 
1.00000000 0.07843137 0.58823529 
0.02745098 0.63137255 0.66666667 
0.05098039 0.62745098 0.65882353 
0.61568627 0.62352941 0.65490196 
0.97254902 0.58823529 0.61960784 
1.00000000 0.55686275 0.59607843 
0.07450980 0.94117647 0.58431373 
0.07058824 0.94117647 0.58431373 
0.54901961 0.93725490 0.58431373 
0.95686275 0.93333333 0.58431373 
1.00000000 0.91764706 0.57647059 
0.09019608 1.00000000 0.56078431 
0.09019608 1.00000000 0.56078431 
0.52156863 1.00000000 0.56470588 
0.92549020 1.00000000 0.57254902 
1.00000000 1.00000000 0.56862745 
0.00000000 0.02745098 1.00000000 
0.12941176 0.03529412 1.00000000 
0.63137255 0.05882353 1.00000000 
0.97254902 0.08235294 1.00000000 
1.00000000 0.08627451 0.98823529 
0.00000000 0.15686275 1.00000000 
0.09019608 0.14901961 1.00000000 
0.59607843 0.15294118 1.00000000 
0.96862745 0.12549020 1.00000000 
1.00000000 0.08627451 0.98431373 
0.03137255 0.60000000 1.00000000 
0.03137255 0.59215686 1.00000000 
0.57647059 0.58823529 0.99607843 
0.96470588 0.57647059 0.99215686 
1.00000000 0.56470588 0.97647059 
0.09019608 0.93725490 0.98431373 
0.09019608 0.93725490 0.98431373 
0.56078431 0.93333333 0.98039216 
0.95294118 0.93333333 0.97647059 
1.00000000 0.92549020 0.96862745 
0.10588235 1.00000000 0.95686275 
0.12941176 1.00000000 0.95686275 
0.61176471 1.00000000 0.96078431 
0.94117647 1.00000000 0.96470588 
1.00000000 1.00000000 0.96470588 
0.00000000 0.02745098 1.00000000 
0.12156863 0.03529412 1.00000000 
0.58431373 0.06274510 1.00000000 
0.94901961 0.08235294 1.00000000 
1.00000000 0.08627451 1.00000000 
0.00000000 0.14117647 1.00000000 
0.08235294 0.14117647 1.00000000 
0.55294118 0.14901961 1.00000000 
0.94117647 0.13333333 1.00000000 
1.00000000 0.08627451 1.00000000 
0.03137255 0.55686275 1.00000000 
0.06666667 0.55686275 1.00000000 
0.56862745 0.57647059 1.00000000 
0.94509804 0.57254902 1.00000000 
1.00000000 0.56470588 1.00000000 
0.08627451 0.91764706 1.00000000 
0.08627451 0.91764706 1.00000000 
0.60000000 0.92156863 1.00000000 
0.94901961 0.92941176 1.00000000 
1.00000000 0.92549020 1.00000000 
0.11372549 1.00000000 1.00000000 
0.17647059 1.00000000 1.00000000 
0.62745098 1.00000000 1.00000000 
0.94509804 1.00000000 1.00000000 
1.00000000 1.00000000 1.00000000 
