cube_files/most_realistic.cube
TITLE "Created by Polarr" 
LUT_3D_SIZE 9 
0.00000000 0.00000000 0.00000000 
0.04705882 0.01568627 0.01176471 
0.15686275 0.01960784 0.01568627 
0.36862745 0.02745098 0.02745098 
0.63529412 0.04313725 0.04313725 
0.87450980 0.05490196 0.05882353 
0.98039216 0.06274510 0.06666667 
1.00000000 0.06666667 0.07058824 
1.00000000 0.06666667 0.07058824 
0.00000000 0.07450980 0.01568627 
0.04313725 0.07058824 0.01568627 
0.15294118 0.07058824 0.01960784 
0.35686275 0.07843137 0.03137255 
0.63137255 0.07450980 0.04705882 
0.87058824 0.05490196 0.05882353 
0.97647059 0.06274510 0.06666667 
1.00000000 0.06666667 0.07058824 
1.00000000 0.06666667 0.07058824 
0.00000000 0.17647059 0.01960784 
0.03137255 0.17647059 0.02352941 
0.14901961 0.17647059 0.03137255 
0.35294118 0.18431373 0.04313725 
0.62352941 0.18823529 0.05882353 
0.86666667 0.18823529 0.07058824 
0.97647059 0.17254902 0.07843137 
1.00000000 0.14901961 0.07843137 
1.00000000 0.10980392 0.07450980 
0.00000000 0.37254902 0.04705882 
0.00000000 0.36862745 0.04313725 
0.13725490 0.37254902 0.05098039 
0.34509804 0.37254902 0.06274510 
0.61960784 0.38039216 0.08235294 
0.86666667 0.38823529 0.09803922 
0.97254902 0.37254902 0.10196078 
1.00000000 0.34509804 0.10196078 
1.00000000 0.30980392 0.09803922 
0.01960784 0.63137255 0.07843137 
0.01960784 0.63137255 0.07843137 
0.11764706 0.63137255 0.08235294 
0.33725490 0.63137255 0.09411765 
0.61960784 0.63137255 0.10980392 
0.86274510 0.63137255 0.12156863 
0.96862745 0.61960784 0.12549020 
1.00000000 0.58823529 0.12549020 
1.00000000 0.55686275 0.12156863 
0.04313725 0.85098039 0.10588235 
0.04313725 0.85098039 0.10588235 
0.04313725 0.85098039 0.10588235 
0.30196078 0.84705882 0.11764706 
0.60000000 0.84705882 0.12941176 
0.85490196 0.84313725 0.13725490 
0.96470588 0.83137255 0.13725490 
1.00000000 0.81176471 0.14117647 
1.00000000 0.79215686 0.13725490 
0.05882353 0.94117647 0.11764706 
0.05882353 0.94117647 0.11764706 
0.05882353 0.94117647 0.11764706 
0.23529412 0.94117647 0.12549020 
0.54509804 0.94117647 0.13333333 
0.82352941 0.93725490 0.14117647 
0.95686275 0.93725490 0.14901961 
1.00000000 0.92549020 0.15294118 
1.00000000 0.91372549 0.14901961 
0.07058824 0.98431373 0.12156863 
0.07058824 0.98431373 0.12156863 
0.07058824 0.98431373 0.12156863 
0.16470588 0.98431373 0.12549020 
0.47450980 0.98431373 0.13725490 
0.77647059 0.98039216 0.14509804 
0.93725490 0.98039216 0.15686275 
1.00000000 0.98039216 0.16078431 
1.00000000 0.97254902 0.16078431 
0.07450980 1.00000000 0.12549020 
0.07450980 1.00000000 0.12549020 
0.07450980 1.00000000 0.12549020 
0.10980392 1.00000000 0.12549020 
0.41568627 1.00000000 0.13725490 
0.72549020 1.00000000 0.14509804 
0.91372549 1.00000000 0.15686275 
0.98823529 1.00000000 0.16078431 
1.00000000 1.00000000 0.16470588 
0.00000000 0.00392157 0.06666667 
0.04705882 0.01568627 0.07450980 
0.15686275 0.01960784 0.07450980 
0.36470588 0.02745098 0.07843137 
0.63921569 0.04313725 0.08235294 
0.87450980 0.05490196 0.08235294 
0.98039216 0.06274510 0.06666667 
1.00000000 0.06666667 0.07058824 
1.00000000 0.06666667 0.07058824 
0.00000000 0.07058824 0.07450980 
0.04313725 0.07058824 0.07058824 
0.15294118 0.06666667 0.07058824 
0.36078431 0.07058824 0.07450980 
0.63529412 0.06274510 0.07843137 
0.87450980 0.05490196 0.07450980 
0.98039216 0.06274510 0.06666667 
1.00000000 0.06666667 0.07058824 
1.00000000 0.06666667 0.07058824 
0.00000000 0.17647059 0.06666667 
0.02745098 0.17647059 0.06666667 
0.14509804 0.17647059 0.06666667 
0.35294118 0.18039216 0.07450980 
0.62745098 0.18431373 0.07450980 
0.87058824 0.18039216 0.07058824 
0.97647059 0.16078431 0.07450980 
1.00000000 0.13725490 0.07843137 
1.00000000 0.09803922 0.07450980 
0.00000000 0.37254902 0.05882353 
0.00000000 0.36862745 0.05490196 
0.13333333 0.37254902 0.05490196 
0.34509804 0.36862745 0.06274510 
0.62352941 0.37647059 0.08235294 
0.86666667 0.38039216 0.09411765 
0.97254902 0.36078431 0.10196078 
1.00000000 0.33725490 0.10196078 
1.00000000 0.30196078 0.09803922 
0.01960784 0.63137255 0.07843137 
0.01960784 0.63137255 0.07450980 
0.10588235 0.63137255 0.08235294 
0.33333333 0.63137255 0.09411765 
0.61960784 0.63137255 0.10980392 
0.86274510 0.62745098 0.12156863 
0.96862745 0.61176471 0.12549020 
1.00000000 0.58431373 0.12549020 
1.00000000 0.55294118 0.12156863 
0.04313725 0.85098039 0.10588235 
0.04313725 0.85098039 0.10588235 
0.04313725 0.85098039 0.10588235 
0.29411765 0.84705882 0.11764706 
0.59607843 0.84705882 0.12941176 
0.85490196 0.83921569 0.13725490 
0.96470588 0.82745098 0.13725490 
1.00000000 0.81176471 0.14117647 
1.00000000 0.78823529 0.13725490 
0.05882353 0.94117647 0.11764706 
0.05882353 0.94117647 0.11764706 
0.05882353 0.94117647 0.11764706 
0.22745098 0.94117647 0.12549020 
0.54117647 0.94117647 0.13333333 
0.82352941 0.93725490 0.14117647 
0.95686275 0.93725490 0.14901961 
1.00000000 0.92549020 0.15294118 
1.00000000 0.91372549 0.14901961 
0.07058824 0.98431373 0.12156863 
0.07058824 0.98431373 0.12156863 
0.07058824 0.98431373 0.12156863 
0.16470588 0.98431373 0.12549020 
0.47058824 0.98431373 0.13725490 
0.77647059 0.98039216 0.14509804 
0.93725490 0.98039216 0.15686275 
1.00000000 0.98039216 0.16078431 
1.00000000 0.97254902 0.16078431 
0.07450980 1.00000000 0.12549020 
0.07450980 1.00000000 0.12549020 
0.07450980 1.00000000 0.12549020 
0.11372549 1.00000000 0.12549020 
0.41960784 1.00000000 0.13725490 
0.72941176 1.00000000 0.14509804 
0.91372549 1.00000000 0.15686275 
0.98823529 1.00000000 0.16078431 
1.00000000 1.00000000 0.16470588 
0.00000000 0.01568627 0.20000000 
0.04313725 0.01568627 0.19215686 
0.15686275 0.01960784 0.18823529 
0.36078431 0.03137255 0.19215686 
0.63529412 0.04705882 0.20000000 
0.87450980 0.05882353 0.20000000 
0.98039216 0.06666667 0.18431373 
1.00000000 0.06666667 0.16862745 
1.00000000 0.06666667 0.15294118 
0.00000000 0.07058824 0.18823529 
0.03921569 0.07058824 0.18823529 
0.15294118 0.06666667 0.18431373 
0.35686275 0.06666667 0.18823529 
0.63529412 0.05098039 0.18823529 
0.87450980 0.05882353 0.18823529 
0.98039216 0.06666667 0.17647059 
1.00000000 0.06666667 0.16470588 
1.00000000 0.06666667 0.14901961 
0.00000000 0.17254902 0.18039216 
0.01960784 0.17254902 0.18039216 
0.14509804 0.17647059 0.18039216 
0.35294118 0.17254902 0.18039216 
0.63137255 0.17254902 0.18431373 
0.87058824 0.16078431 0.18039216 
0.97647059 0.14117647 0.17254902 
1.00000000 0.11372549 0.15686275 
1.00000000 0.06666667 0.14117647 
0.00392157 0.37254902 0.17647059 
0.00392157 0.36862745 0.17254902 
0.12156863 0.36862745 0.17254902 
0.34117647 0.36862745 0.18039216 
0.62745098 0.36862745 0.18431373 
0.87058824 0.36470588 0.18431373 
0.97254902 0.34509804 0.17647059 
1.00000000 0.32156863 0.16470588 
1.00000000 0.29019608 0.14901961 
0.01960784 0.63529412 0.16862745 
0.01960784 0.63137255 0.16862745 
0.08627451 0.62745098 0.16862745 
0.31764706 0.62745098 0.17647059 
0.61568627 0.62745098 0.18039216 
0.86666667 0.61960784 0.18039216 
0.97254902 0.60392157 0.17254902 
1.00000000 0.57254902 0.16078431 
1.00000000 0.54509804 0.14901961 
0.04313725 0.85098039 0.15294118 
0.04313725 0.85098039 0.14901961 
0.04313725 0.84705882 0.14509804 
0.27450980 0.84705882 0.14901961 
0.58823529 0.84313725 0.14901961 
0.85490196 0.83921569 0.14117647 
0.96470588 0.82745098 0.13725490 
1.00000000 0.80784314 0.13725490 
1.00000000 0.78431373 0.13725490 
0.05882353 0.94117647 0.11764706 
0.05882353 0.94117647 0.11764706 
0.05882353 0.94117647 0.11764706 
0.21568627 0.94117647 0.12156863 
0.53333333 0.94117647 0.13333333 
0.81960784 0.93725490 0.14117647 
0.95686275 0.93333333 0.14901961 
1.00000000 0.92549020 0.15294118 
1.00000000 0.91372549 0.14901961 
0.07058824 0.98431373 0.12156863 
0.07058824 0.98431373 0.12156863 
0.07058824 0.98431373 0.12156863 
0.16470588 0.98431373 0.12549020 
0.47058824 0.98431373 0.13725490 
0.77647059 0.98039216 0.14509804 
0.93725490 0.98039216 0.15686275 
1.00000000 0.97647059 0.16078431 
1.00000000 0.97254902 0.16078431 
0.07450980 1.00000000 0.12549020 
0.07450980 1.00000000 0.12549020 
0.07450980 1.00000000 0.12549020 
0.12941176 1.00000000 0.12549020 
0.43137255 1.00000000 0.13725490 
0.73333333 1.00000000 0.14509804 
0.91372549 1.00000000 0.15686275 
0.98823529 1.00000000 0.16078431 
1.00000000 1.00000000 0.16470588 
0.00000000 0.01568627 0.43137255 
0.04313725 0.01960784 0.42352941 
0.16078431 0.02352941 0.41568627 
0.36470588 0.03529412 0.41176471 
0.63529412 0.05098039 0.41176471 
0.87450980 0.06274510 0.41568627 
0.98039216 0.07058824 0.40000000 
1.00000000 0.07058824 0.37254902 
1.00000000 0.07058824 0.34117647 
0.00000000 0.07058824 0.41568627 
0.02745098 0.06666667 0.41568627 
0.14901961 0.06666667 0.40784314 
0.36078431 0.06274510 0.40392157 
0.63137255 0.04705882 0.40392157 
0.87450980 0.06274510 0.40392157 
0.97647059 0.07058824 0.38823529 
1.00000000 0.07058824 0.36078431 
1.00000000 0.07058824 0.33333333 
0.00000000 0.17254902 0.40000000 
0.00784314 0.16862745 0.39607843 
0.13333333 0.16862745 0.39607843 
0.35294118 0.16862745 0.39607843 
0.63137255 0.16470588 0.39215686 
0.87058824 0.15294118 0.38431373 
0.97647059 0.12941176 0.36470588 
1.00000000 0.09411765 0.34117647 
1.00000000 0.07058824 0.31764706 
0.00392157 0.36862745 0.38823529 
0.00392157 0.36862745 0.38431373 
0.11372549 0.36862745 0.38431373 
0.34117647 0.36862745 0.38431373 
0.62745098 0.35686275 0.37647059 
0.87058824 0.34509804 0.36862745 
0.97254902 0.32549020 0.35294118 
1.00000000 0.30196078 0.34117647 
1.00000000 0.28235294 0.32549020 
0.02352941 0.63137255 0.37647059 
0.02352941 0.62745098 0.37254902 
0.06274510 0.62745098 0.36078431 
0.30196078 0.62745098 0.36078431 
0.61568627 0.62352941 0.36470588 
0.86666667 0.61176471 0.35686275 
0.96862745 0.59215686 0.34901961 
1.00000000 0.56470588 0.33725490 
1.00000000 0.54117647 0.32941176 
0.04705882 0.85098039 0.34117647 
0.04705882 0.84705882 0.33725490 
0.04705882 0.84705882 0.33333333 
0.25882353 0.84313725 0.33333333 
0.58039216 0.84313725 0.33333333 
0.85490196 0.83921569 0.32941176 
0.96862745 0.82352941 0.32549020 
1.00000000 0.80784314 0.32156863 
1.00000000 0.78431373 0.31764706 
0.06274510 0.94509804 0.30980392 
0.06274510 0.94509804 0.30980392 
0.06274510 0.94117647 0.30588235 
0.21568627 0.94117647 0.30588235 
0.53333333 0.94117647 0.30588235 
0.81960784 0.93725490 0.30980392 
0.95686275 0.93333333 0.30588235 
1.00000000 0.92549020 0.30980392 
1.00000000 0.91764706 0.30980392 
0.07450980 0.98431373 0.28627451 
0.07450980 0.98431373 0.28627451 
0.07450980 0.98431373 0.28627451 
0.18431373 0.98431373 0.28627451 
0.48627451 0.98039216 0.29019608 
0.78431373 0.98039216 0.29411765 
0.93725490 0.98039216 0.29803922 
1.00000000 0.97647059 0.29803922 
1.00000000 0.97254902 0.30588235 
0.08235294 1.00000000 0.28627451 
0.08235294 1.00000000 0.28627451 
0.08235294 1.00000000 0.28627451 
0.18431373 1.00000000 0.28235294 
0.46274510 1.00000000 0.29019608 
0.75294118 1.00000000 0.29803922 
0.91764706 1.00000000 0.30588235 
0.98823529 1.00000000 0.30588235 
1.00000000 1.00000000 0.30980392 
0.00000000 0.02352941 0.72549020 
0.03137255 0.02352941 0.71764706 
0.16078431 0.02745098 0.70980392 
0.38039216 0.03921569 0.70588235 
0.64313725 0.05490196 0.69411765 
0.87058824 0.06666667 0.69411765 
0.97647059 0.07450980 0.68235294 
1.00000000 0.07843137 0.64705882 
1.00000000 0.07843137 0.61176471 
0.00000000 0.06666667 0.70980392 
0.01176471 0.06274510 0.70588235 
0.14509804 0.06274510 0.70196078 
0.36470588 0.05490196 0.69803922 
0.63529412 0.05490196 0.68627451 
0.87058824 0.06666667 0.68627451 
0.97647059 0.07450980 0.67058824 
1.00000000 0.07843137 0.63921569 
1.00000000 0.07843137 0.60392157 
0.00000000 0.17254902 0.69411765 
0.00000000 0.16862745 0.69019608 
0.12549020 0.16470588 0.69019608 
0.34509804 0.16470588 0.68627451 
0.63137255 0.16470588 0.67843137 
0.87058824 0.15294118 0.67450980 
0.97647059 0.12549020 0.65098039 
1.00000000 0.08627451 0.61960784 
1.00000000 0.07843137 0.58823529 
0.00784314 0.37254902 0.67843137 
0.00392157 0.36862745 0.67843137 
0.10196078 0.36078431 0.67450980 
0.31764706 0.34901961 0.67450980 
0.62352941 0.34901961 0.67058824 
0.87058824 0.33333333 0.65490196 
0.97254902 0.31764706 0.63137255 
1.00000000 0.30196078 0.60784314 
1.00000000 0.29019608 0.58823529 
0.02745098 0.63137255 0.66666667 
0.02745098 0.62745098 0.66274510 
0.05098039 0.62745098 0.65882353 
0.28627451 0.62352941 0.65882353 
0.61568627 0.62352941 0.65490196 
0.86666667 0.60392157 0.63529412 
0.97254902 0.58823529 0.61960784 
1.00000000 0.57254902 0.60784314 
1.00000000 0.55686275 0.59607843 
0.05490196 0.84705882 0.63137255 
0.05490196 0.84705882 0.62745098 
0.05490196 0.84313725 0.61960784 
0.25098039 0.84313725 0.61568627 
0.57647059 0.83921569 0.61568627 
0.85098039 0.83529412 0.60784314 
0.96470588 0.82352941 0.60392157 
1.00000000 0.80784314 0.59607843 
1.00000000 0.79607843 0.58823529 
0.07450980 0.94117647 0.58431373 
0.07450980 0.94117647 0.58431373 
0.07058824 0.94117647 0.58431373 
0.24313725 0.94117647 0.58823529 
0.54901961 0.93725490 0.58431373 
0.82352941 0.93725490 0.58823529 
0.95686275 0.93333333 0.58431373 
1.00000000 0.92549020 0.58039216 
1.00000000 0.91764706 0.57647059 
0.08627451 0.98431373 0.56862745 
0.08627451 0.98431373 0.57254902 
0.08627451 0.98431373 0.56862745 
0.23921569 0.98039216 0.56862745 
0.52549020 0.98039216 0.56862745 
0.80000000 0.98039216 0.57254902 
0.94117647 0.98039216 0.56862745 
1.00000000 0.97647059 0.56470588 
1.00000000 0.97254902 0.56862745 
0.09019608 1.00000000 0.56078431 
0.09019608 1.00000000 0.56078431 
0.09019608 1.00000000 0.56078431 
0.26274510 1.00000000 0.56470588 
0.52156863 1.00000000 0.56470588 
0.78039216 1.00000000 0.56862745 
0.92549020 1.00000000 0.57254902 
0.98823529 1.00000000 0.57254902 
1.00000000 1.00000000 0.56862745 
0.00000000 0.02745098 0.93333333 
0.00784314 0.02745098 0.93333333 
0.15294118 0.03137255 0.92941176 
0.37647059 0.04705882 0.92549020 
0.65098039 0.05882353 0.92156863 
0.87058824 0.07058824 0.91372549 
0.97647059 0.07843137 0.90588235 
1.00000000 0.08235294 0.89019608 
1.00000000 0.08235294 0.86666667 
0.00000000 0.05882353 0.92941176 
0.00000000 0.05882353 0.92549020 
0.13333333 0.05098039 0.92549020 
0.35686275 0.04313725 0.92156863 
0.63921569 0.05882353 0.91764706 
0.86666667 0.07058824 0.90980392 
0.97647059 0.07843137 0.90588235 
1.00000000 0.08235294 0.88627451 
1.00000000 0.08235294 0.85882353 
0.00000000 0.16862745 0.92156863 
0.00000000 0.16078431 0.92156863 
0.10588235 0.15686275 0.91764706 
0.33333333 0.15686275 0.91372549 
0.62352941 0.16078431 0.91372549 
0.86666667 0.14901961 0.90980392 
0.97647059 0.12549020 0.89803922 
1.00000000 0.08235294 0.87450980 
1.00000000 0.08235294 0.85098039 
0.00784314 0.36470588 0.91372549 
0.00784314 0.36078431 0.91372549 
0.08235294 0.34901961 0.90980392 
0.30196078 0.33725490 0.90588235 
0.60392157 0.33725490 0.90588235 
0.86274510 0.32941176 0.90196078 
0.97254902 0.31372549 0.89019608 
1.00000000 0.29803922 0.86666667 
1.00000000 0.28627451 0.84705882 
0.03137255 0.61960784 0.90196078 
0.03137255 0.61568627 0.90196078 
0.03137255 0.61176471 0.89803922 
0.27843137 0.60392157 0.89803922 
0.59215686 0.60000000 0.89411765 
0.85882353 0.59215686 0.89019608 
0.96862745 0.58431373 0.87450980 
1.00000000 0.56862745 0.85882353 
1.00000000 0.56470588 0.84705882 
0.06274510 0.84313725 0.88627451 
0.06274510 0.84313725 0.88627451 
0.06274510 0.83921569 0.88235294 
0.25490196 0.83921569 0.88235294 
0.57647059 0.83529412 0.87843137 
0.85098039 0.83529412 0.87450980 
0.96470588 0.82352941 0.86274510 
1.00000000 0.81176471 0.85490196 
1.00000000 0.80784314 0.84705882 
0.08235294 0.94117647 0.85490196 
0.08235294 0.94117647 0.85490196 
0.08235294 0.94117647 0.85490196 
0.25098039 0.93725490 0.85098039 
0.56078431 0.93725490 0.85490196 
0.82745098 0.93333333 0.85098039 
0.95294118 0.93333333 0.84705882 
1.00000000 0.92941176 0.84313725 
1.00000000 0.92156863 0.83921569 
0.09411765 0.98431373 0.82745098 
0.09411765 0.98039216 0.82745098 
0.09411765 0.98039216 0.83137255 
0.27843137 0.98039216 0.83137255 
0.56470588 0.98039216 0.83921569 
0.81568627 0.98039216 0.83921569 
0.94117647 0.97647059 0.83529412 
1.00000000 0.97647059 0.83529412 
1.00000000 0.97254902 0.83137255 
0.10196078 1.00000000 0.81960784 
0.10196078 1.00000000 0.81960784 
0.11764706 1.00000000 0.82352941 
0.34117647 1.00000000 0.83137255 
0.58039216 1.00000000 0.83137255 
0.80784314 1.00000000 0.83137255 
0.93725490 1.00000000 0.83137255 
0.99215686 1.00000000 0.83137255 
1.00000000 1.00000000 0.82745098 
0.00000000 0.02745098 1.00000000 
0.00000000 0.02745098 1.00000000 
0.12941176 0.03529412 1.00000000 
0.35686275 0.04705882 1.00000000 
0.63137255 0.05882353 1.00000000 
0.85882353 0.07450980 1.00000000 
0.97254902 0.08235294 1.00000000 
1.00000000 0.08627451 1.00000000 
1.00000000 0.08627451 0.98823529 
0.00000000 0.04705882 1.00000000 
0.00000000 0.04313725 1.00000000 
0.11372549 0.03921569 1.00000000 
0.33725490 0.04313725 1.00000000 
0.61960784 0.05882353 1.00000000 
0.85490196 0.07450980 1.00000000 
0.96862745 0.08235294 1.00000000 
1.00000000 0.08627451 1.00000000 
1.00000000 0.08627451 0.98431373 
0.00000000 0.15686275 1.00000000 
0.00000000 0.15294118 1.00000000 
0.09019608 0.14901961 1.00000000 
0.30980392 0.15294118 1.00000000 
0.59607843 0.15294118 1.00000000 
0.85098039 0.14509804 1.00000000 
0.96862745 0.12549020 1.00000000 
1.00000000 0.08627451 0.99607843 
1.00000000 0.08627451 0.98431373 
0.01176471 0.34901961 1.00000000 
0.01176471 0.34117647 1.00000000 
0.06274510 0.33333333 0.99607843 
0.28627451 0.32941176 1.00000000 
0.58039216 0.32941176 1.00000000 
0.83921569 0.32549020 1.00000000 
0.96470588 0.31372549 0.99607843 
1.00000000 0.29411765 0.98823529 
1.00000000 0.28627451 0.97647059 
0.03137255 0.60000000 1.00000000 
0.03137255 0.59607843 1.00000000 
0.03137255 0.59215686 1.00000000 
0.27058824 0.58823529 1.00000000 
0.57647059 0.58823529 0.99607843 
0.83921569 0.58431373 0.99607843 
0.96470588 0.57647059 0.99215686 
1.00000000 0.56862745 0.98431373 
1.00000000 0.56470588 0.97647059 
0.06274510 0.82745098 0.99607843 
0.06274510 0.82352941 0.99215686 
0.06274510 0.82352941 0.99215686 
0.26666667 0.82352941 0.99215686 
0.57647059 0.82352941 0.98823529 
0.83921569 0.82352941 0.98823529 
0.96078431 0.81960784 0.98431373 
1.00000000 0.81176471 0.98039216 
1.00000000 0.80784314 0.97254902 
0.09019608 0.93725490 0.98431373 
0.09019608 0.93725490 0.98431373 
0.09019608 0.93725490 0.98431373 
0.25490196 0.93725490 0.98431373 
0.56078431 0.93333333 0.98039216 
0.82745098 0.93333333 0.98039216 
0.95294118 0.93333333 0.97647059 
1.00000000 0.92941176 0.97254902 
1.00000000 0.92549020 0.96862745 
0.10196078 0.98039216 0.96862745 
0.10196078 0.98039216 0.96862745 
0.10196078 0.98039216 0.96470588 
0.28235294 0.98039216 0.96862745 
0.56862745 0.98039216 0.96862745 
0.82352941 0.97647059 0.96862745 
0.94509804 0.97647059 0.96862745 
1.00000000 0.97647059 0.96470588 
1.00000000 0.97254902 0.96470588 
0.10588235 1.00000000 0.95686275 
0.10588235 1.00000000 0.95686275 
0.12941176 1.00000000 0.95686275 
0.35294118 1.00000000 0.96078431 
0.61176471 1.00000000 0.96078431 
0.83137255 1.00000000 0.96470588 
0.94117647 1.00000000 0.96470588 
0.99607843 1.00000000 0.96470588 
1.00000000 1.00000000 0.96470588 
0.00000000 0.02745098 1.00000000 
0.00000000 0.02745098 1.00000000 
0.10588235 0.03529412 1.00000000 
0.32549020 0.04705882 1.00000000 
0.60000000 0.06274510 1.00000000 
0.83921569 0.07450980 1.00000000 
0.96078431 0.08235294 1.00000000 
1.00000000 0.08627451 1.00000000 
1.00000000 0.08627451 1.00000000 
0.00000000 0.03137255 1.00000000 
0.00000000 0.02745098 1.00000000 
0.08627451 0.03137255 1.00000000 
0.30588235 0.04705882 1.00000000 
0.58431373 0.06274510 1.00000000 
0.83529412 0.07450980 1.00000000 
0.95686275 0.08235294 1.00000000 
1.00000000 0.08627451 1.00000000 
1.00000000 0.08627451 1.00000000 
0.00000000 0.14509804 1.00000000 
0.00000000 0.14117647 1.00000000 
0.06666667 0.14117647 1.00000000 
0.28627451 0.14509804 1.00000000 
0.56470588 0.14901961 1.00000000 
0.82745098 0.14509804 1.00000000 
0.95686275 0.12549020 1.00000000 
1.00000000 0.08627451 1.00000000 
1.00000000 0.08627451 1.00000000 
0.01176471 0.32941176 1.00000000 
0.01176471 0.32549020 1.00000000 
0.04705882 0.32156863 1.00000000 
0.26666667 0.32156863 1.00000000 
0.55294118 0.32156863 1.00000000 
0.81960784 0.32156863 1.00000000 
0.95294118 0.31372549 1.00000000 
1.00000000 0.29803922 1.00000000 
1.00000000 0.28235294 1.00000000 
0.03137255 0.57647059 1.00000000 
0.03137255 0.57254902 1.00000000 
0.03137255 0.56862745 1.00000000 
0.26666667 0.57254902 1.00000000 
0.56078431 0.58039216 1.00000000 
0.82745098 0.58039216 1.00000000 
0.95294118 0.57254902 1.00000000 
1.00000000 0.56862745 1.00000000 
1.00000000 0.56078431 1.00000000 
0.05882353 0.80784314 1.00000000 
0.05882353 0.80784314 1.00000000 
0.05882353 0.80784314 1.00000000 
0.27843137 0.80784314 1.00000000 
0.57647059 0.81176471 1.00000000 
0.83137255 0.81960784 1.00000000 
0.95294118 0.81176471 1.00000000 
1.00000000 0.81176471 1.00000000 
1.00000000 0.80784314 1.00000000 
0.08627451 0.92941176 1.00000000 
0.08627451 0.92941176 1.00000000 
0.08627451 0.92941176 1.00000000 
0.28627451 0.92941176 1.00000000 
0.57647059 0.92941176 1.00000000 
0.82745098 0.92549020 1.00000000 
0.94901961 0.92941176 1.00000000 
1.00000000 0.92941176 1.00000000 
1.00000000 0.92549020 1.00000000 
0.10196078 0.98039216 1.00000000 
0.10196078 0.98039216 1.00000000 
0.10196078 0.98039216 1.00000000 
0.29019608 0.98039216 1.00000000 
0.57254902 0.97647059 1.00000000 
0.82352941 0.97647059 1.00000000 
0.94509804 0.97647059 1.00000000 
1.00000000 0.97647059 1.00000000 
1.00000000 0.97254902 1.00000000 
0.10980392 1.00000000 1.00000000 
0.10980392 1.00000000 1.00000000 
0.14117647 1.00000000 1.00000000 
0.36078431 1.00000000 1.00000000 
0.61176471 1.00000000 1.00000000 
0.83529412 1.00000000 1.00000000 
0.94509804 1.00000000 1.00000000 
0.99607843 1.00000000 1.00000000 
1.00000000 1.00000000 1.00000000 
0.00000000 0.02745098 1.00000000 
0.00000000 0.02745098 1.00000000 
0.12156863 0.03529412 1.00000000 
0.32549020 0.04705882 1.00000000 
0.58431373 0.06274510 1.00000000 
0.82352941 0.07450980 1.00000000 
0.94901961 0.08235294 1.00000000 
1.00000000 0.08627451 1.00000000 
1.00000000 0.08627451 1.00000000 
0.00000000 0.03137255 1.00000000 
0.00000000 0.02745098 1.00000000 
0.10196078 0.03529412 1.00000000 
0.30980392 0.04705882 1.00000000 
0.57254902 0.05882353 1.00000000 
0.81568627 0.07450980 1.00000000 
0.94509804 0.08235294 1.00000000 
1.00000000 0.08627451 1.00000000 
1.00000000 0.08627451 1.00000000 
0.00000000 0.14117647 1.00000000 
0.00000000 0.14117647 1.00000000 
0.08235294 0.14117647 1.00000000 
0.29019608 0.14509804 1.00000000 
0.55294118 0.14901961 1.00000000 
0.80784314 0.14509804 1.00000000 
0.94117647 0.13333333 1.00000000 
1.00000000 0.10588235 1.00000000 
1.00000000 0.08627451 1.00000000 
0.00784314 0.31764706 1.00000000 
0.00784314 0.31764706 1.00000000 
0.07058824 0.31372549 1.00000000 
0.27843137 0.31764706 1.00000000 
0.54509804 0.32156863 1.00000000 
0.80392157 0.32156863 1.00000000 
0.94117647 0.31764706 1.00000000 
1.00000000 0.30588235 1.00000000 
1.00000000 0.29411765 1.00000000 
0.03137255 0.55686275 1.00000000 
0.03137255 0.55686275 1.00000000 
0.06666667 0.55686275 1.00000000 
0.29019608 0.56862745 1.00000000 
0.56862745 0.57647059 1.00000000 
0.81568627 0.57647059 1.00000000 
0.94509804 0.57254902 1.00000000 
1.00000000 0.57254902 1.00000000 
1.00000000 0.56470588 1.00000000 
0.05490196 0.78823529 1.00000000 
0.05882353 0.79215686 1.00000000 
0.05882353 0.79215686 1.00000000 
0.30980392 0.80000000 1.00000000 
0.59215686 0.80784314 1.00000000 
0.83137255 0.81568627 1.00000000 
0.94901961 0.81176471 1.00000000 
1.00000000 0.80784314 1.00000000 
1.00000000 0.80784314 1.00000000 
0.08627451 0.91764706 1.00000000 
0.08627451 0.91764706 1.00000000 
0.08627451 0.91764706 1.00000000 
0.32549020 0.92156863 1.00000000 
0.60000000 0.92156863 1.00000000 
0.83137255 0.92156863 1.00000000 
0.94901961 0.92941176 1.00000000 
1.00000000 0.92549020 1.00000000 
1.00000000 0.92549020 1.00000000 
0.10196078 0.97254902 1.00000000 
0.10196078 0.97254902 1.00000000 
0.11764706 0.97254902 1.00000000 
0.34901961 0.97254902 1.00000000 
0.60784314 0.97254902 1.00000000 
0.83529412 0.97254902 1.00000000 
0.94509804 0.97254902 1.00000000 
0.99607843 0.97254902 1.00000000 
1.00000000 0.97254902 1.00000000 
0.11372549 1.00000000 1.00000000 
0.11372549 1.00000000 1.00000000 
0.17647059 1.00000000 1.00000000 
0.38039216 1.00000000 1.00000000 
0.62745098 1.00000000 1.00000000 
0.83921569 1.00000000 1.00000000 
0.94509804 1.00000000 1.00000000 
0.99607843 1.00000000 1.00000000 
1.00000000 1.00000000 1.00000000 
